(G-CODE GENERATED BY FLATCAM v8.99 - www.flatcam.org - Version Date: 2019/12/15)

(Name: BusinessCardPCB-PTH.drl_cnc)
(Type: G-code from Excellon)
(Units: MM)

(Created on Tuesday, 09 December 2025 at 14:03)

(Feedrate: 300.0 mm/min)
(Feedrate rapids 1500.0 mm/min)

(Z_Cut: -2.0 mm)
(Z_Move: 2.0 mm)
(Z Toolchange: 15.0 mm)
(X,Y Toolchange: 0.0000, 0.0000 mm)
(Z Start: None mm)
(Z End: 0.5 mm)
(Steps per circle: 64)
(Preprocessor Excellon: default)

(X range:   13.7108 ...   36.3511  mm)
(Y range:   29.3504 ...   51.5005  mm)

(Spindle Speed: None RPM)
G21
G90
G94




G01 F300.00
G00 Z2.0000

M03
G00 X21.8312 Y51.1004
G01 Z-2.0000
G01 Z0
G00 Z2.0000
G00 X31.9912 Y51.1004
G01 Z-2.0000
G01 Z0
G00 Z2.0000
M03
G00 X31.9912 Y30.7804
G01 Z-2.0000
G01 Z0
G00 Z2.0000
G00 X34.5312 Y30.7804
G01 Z-2.0000
G01 Z0
G00 Z2.0000
M03
G00 X14.2112 Y50.6001
G01 Z-2.0000
G01 Z0
G00 Z2.0000
G00 X14.2112 Y29.8508
G01 Z-2.0000
G01 Z0
G00 Z2.0000
M03
G00 X29.2988 Y44.7504
G01 Z-2.0000
G01 Z0
G00 Z2.0000
G00 X29.2988 Y40.2496
G01 Z-2.0000
G01 Z0
G00 Z2.0000
G00 X35.8012 Y40.2496
G01 Z-2.0000
G01 Z0
G00 Z2.0000
G00 X35.8012 Y44.7504
G01 Z-2.0000
G01 Z0
G00 Z2.0000
M05
G00 Z0.50
G00 X0.0 Y0.0

