(G-CODE GENERATED BY FLATCAM v8.99 - www.flatcam.org - Version Date: 2019/12/15)

(Name: BusinessCardPCB-F_Cu.gbr_iso_cnc)
(Type: G-code from Geometry)
(Units: MM)

(Created on Tuesday, 09 December 2025 at 14:03)

(TOOL DIAMETER: 0.1536 mm)
(Feedrate: 120.0 mm/min)
(Feedrate_Z: 60.0 mm/min)
(Feedrate rapids 1500.0 mm/min)

(Z_Cut: -0.1 mm)
(Z_Move: 2.0 mm)
(Z Toolchange: 15.0 mm)
(X,Y Toolchange: 0.0000, 0.0000 mm)
(Z Start: None mm)
(Z End: 5.0 mm)
(Steps per circle: 64)
(Preprocessor Geometry: default)

(X range:   -0.1293 ...   85.1293  mm)
(Y range:    0.8707 ...   56.1293  mm)

(Spindle Speed: None RPM)
G21
G90
G94




G01 F120.00
G00 Z2.0000

M03
G00 X-0.1149 Y1.4906
G01 F60.00
G01 Z-0.1000
G01 F120.00
G01 X-0.1037 Y1.4391
G01 X-0.0837 Y1.3677
G01 X-0.0554 Y1.2991
G01 X-0.0518 Y1.2918
G01 X-0.0263 Y1.2457
G01 X0.0030 Y1.2018
G01 X0.0358 Y1.1606
G01 X0.0815 Y1.1078
G01 X0.1231 Y1.0642
G01 X0.1686 Y1.0248
G01 X0.2177 Y0.9899
G01 X0.2694 Y0.9602
G01 X0.3237 Y0.9354
G01 X0.3800 Y0.9159
G01 X0.4471 Y0.8963
G01 X0.5053 Y0.8821
G01 X0.5646 Y0.8736
G01 X0.6245 Y0.8707
G01 X84.3755 Y0.8707
G01 X84.4428 Y0.8743
G01 X84.5094 Y0.8851
G01 X84.5609 Y0.8963
G01 X84.6323 Y0.9163
G01 X84.7009 Y0.9446
G01 X84.7082 Y0.9482
G01 X84.7543 Y0.9737
G01 X84.7982 Y1.0030
G01 X84.8394 Y1.0358
G01 X84.8922 Y1.0815
G01 X84.9358 Y1.1231
G01 X84.9752 Y1.1686
G01 X85.0101 Y1.2177
G01 X85.0398 Y1.2694
G01 X85.0646 Y1.3237
G01 X85.0841 Y1.3800
G01 X85.1037 Y1.4471
G01 X85.1179 Y1.5053
G01 X85.1264 Y1.5646
G01 X85.1293 Y1.6245
G01 X85.1293 Y55.3755
G01 X85.1257 Y55.4428
G01 X85.1149 Y55.5094
G01 X85.1037 Y55.5609
G01 X85.0837 Y55.6323
G01 X85.0554 Y55.7009
G01 X85.0518 Y55.7082
G01 X85.0263 Y55.7543
G01 X84.9970 Y55.7982
G01 X84.9642 Y55.8394
G01 X84.9185 Y55.8922
G01 X84.8769 Y55.9358
G01 X84.8314 Y55.9752
G01 X84.7823 Y56.0101
G01 X84.7306 Y56.0398
G01 X84.6763 Y56.0646
G01 X84.6200 Y56.0841
G01 X84.5529 Y56.1037
G01 X84.4947 Y56.1179
G01 X84.4354 Y56.1264
G01 X84.3755 Y56.1293
G01 X0.6245 Y56.1293
G01 X0.5572 Y56.1257
G01 X0.4906 Y56.1149
G01 X0.4391 Y56.1037
G01 X0.3677 Y56.0837
G01 X0.2992 Y56.0554
G01 X0.2918 Y56.0518
G01 X0.2457 Y56.0263
G01 X0.2018 Y55.9970
G01 X0.1606 Y55.9642
G01 X0.1078 Y55.9185
G01 X0.0642 Y55.8769
G01 X0.0248 Y55.8314
G01 X-0.0101 Y55.7823
G01 X-0.0398 Y55.7306
G01 X-0.0646 Y55.6763
G01 X-0.0841 Y55.6200
G01 X-0.1037 Y55.5529
G01 X-0.1179 Y55.4947
G01 X-0.1264 Y55.4354
G01 X-0.1293 Y55.3755
G01 X-0.1293 Y1.6245
G01 X-0.1257 Y1.5572
G01 X-0.1149 Y1.4906
G00 Z2.0000
G00 X0.0202 Y1.5200
G01 F60.00
G01 Z-0.1000
G01 F120.00
G01 X0.0314 Y1.4685
G01 X0.0470 Y1.4128
G01 X0.0691 Y1.3593
G01 X0.0719 Y1.3535
G01 X0.0918 Y1.3175
G01 X0.1146 Y1.2833
G01 X0.1402 Y1.2511
G01 X0.1860 Y1.1983
G01 X0.2184 Y1.1643
G01 X0.2540 Y1.1335
G01 X0.2923 Y1.1063
G01 X0.3326 Y1.0831
G01 X0.3750 Y1.0638
G01 X0.4190 Y1.0486
G01 X0.4860 Y1.0289
G01 X0.5315 Y1.0179
G01 X0.5778 Y1.0112
G01 X0.6245 Y1.0090
G01 X84.3755 Y1.0090
G01 X84.4280 Y1.0118
G01 X84.4800 Y1.0202
G01 X84.5315 Y1.0314
G01 X84.5872 Y1.0470
G01 X84.6407 Y1.0691
G01 X84.6465 Y1.0719
G01 X84.6825 Y1.0918
G01 X84.7167 Y1.1146
G01 X84.7489 Y1.1402
G01 X84.8017 Y1.1860
G01 X84.8357 Y1.2184
G01 X84.8665 Y1.2540
G01 X84.8937 Y1.2923
G01 X84.9169 Y1.3326
G01 X84.9362 Y1.3750
G01 X84.9514 Y1.4190
G01 X84.9711 Y1.4860
G01 X84.9821 Y1.5315
G01 X84.9888 Y1.5778
G01 X84.9910 Y1.6245
G01 X84.9910 Y55.3755
G01 X84.9882 Y55.4280
G01 X84.9798 Y55.4800
G01 X84.9686 Y55.5315
G01 X84.9530 Y55.5872
G01 X84.9309 Y55.6407
G01 X84.9281 Y55.6465
G01 X84.9082 Y55.6825
G01 X84.8854 Y55.7167
G01 X84.8598 Y55.7489
G01 X84.8140 Y55.8017
G01 X84.7816 Y55.8357
G01 X84.7460 Y55.8665
G01 X84.7077 Y55.8937
G01 X84.6674 Y55.9169
G01 X84.6250 Y55.9362
G01 X84.5810 Y55.9514
G01 X84.5140 Y55.9711
G01 X84.4685 Y55.9821
G01 X84.4222 Y55.9888
G01 X84.3755 Y55.9910
G01 X0.6245 Y55.9910
G01 X0.5720 Y55.9882
G01 X0.5200 Y55.9798
G01 X0.4685 Y55.9686
G01 X0.4128 Y55.9530
G01 X0.3593 Y55.9309
G01 X0.3535 Y55.9281
G01 X0.3175 Y55.9082
G01 X0.2833 Y55.8854
G01 X0.2511 Y55.8598
G01 X0.1983 Y55.8140
G01 X0.1643 Y55.7816
G01 X0.1335 Y55.7460
G01 X0.1063 Y55.7077
G01 X0.0831 Y55.6674
G01 X0.0638 Y55.6250
G01 X0.0486 Y55.5810
G01 X0.0289 Y55.5140
G01 X0.0179 Y55.4685
G01 X0.0112 Y55.4222
G01 X0.0090 Y55.3755
G01 X0.0090 Y1.6245
G01 X0.0118 Y1.5720
G01 X0.0202 Y1.5200
G00 Z2.0000
G00 X0.1553 Y1.5494
G01 F60.00
G01 Z-0.1000
G01 F120.00
G01 X0.1665 Y1.4979
G01 X0.1777 Y1.4578
G01 X0.1936 Y1.4194
G01 X0.2099 Y1.3894
G01 X0.2263 Y1.3648
G01 X0.2447 Y1.3416
G01 X0.2905 Y1.2888
G01 X0.3138 Y1.2644
G01 X0.3393 Y1.2423
G01 X0.3669 Y1.2227
G01 X0.3959 Y1.2060
G01 X0.4263 Y1.1922
G01 X0.4579 Y1.1812
G01 X0.5250 Y1.1615
G01 X0.5576 Y1.1536
G01 X0.5909 Y1.1488
G01 X0.6245 Y1.1472
G01 X84.3755 Y1.1472
G01 X84.4133 Y1.1492
G01 X84.4506 Y1.1553
G01 X84.5021 Y1.1665
G01 X84.5422 Y1.1777
G01 X84.5806 Y1.1936
G01 X84.6106 Y1.2099
G01 X84.6352 Y1.2263
G01 X84.6584 Y1.2447
G01 X84.7112 Y1.2905
G01 X84.7356 Y1.3138
G01 X84.7577 Y1.3393
G01 X84.7773 Y1.3669
G01 X84.7940 Y1.3959
G01 X84.8078 Y1.4263
G01 X84.8188 Y1.4579
G01 X84.8385 Y1.5250
G01 X84.8464 Y1.5576
G01 X84.8512 Y1.5909
G01 X84.8528 Y1.6245
G01 X84.8528 Y55.3755
G01 X84.8508 Y55.4133
G01 X84.8447 Y55.4506
G01 X84.8335 Y55.5021
G01 X84.8223 Y55.5422
G01 X84.8064 Y55.5806
G01 X84.7901 Y55.6106
G01 X84.7737 Y55.6352
G01 X84.7553 Y55.6584
G01 X84.7095 Y55.7112
G01 X84.6862 Y55.7356
G01 X84.6607 Y55.7577
G01 X84.6331 Y55.7773
G01 X84.6041 Y55.7940
G01 X84.5737 Y55.8078
G01 X84.5421 Y55.8188
G01 X84.4750 Y55.8385
G01 X84.4424 Y55.8464
G01 X84.4091 Y55.8512
G01 X84.3755 Y55.8528
G01 X0.6245 Y55.8528
G01 X0.5867 Y55.8508
G01 X0.5494 Y55.8447
G01 X0.4979 Y55.8335
G01 X0.4578 Y55.8223
G01 X0.4194 Y55.8064
G01 X0.3894 Y55.7901
G01 X0.3648 Y55.7737
G01 X0.3416 Y55.7553
G01 X0.2888 Y55.7095
G01 X0.2644 Y55.6862
G01 X0.2423 Y55.6607
G01 X0.2227 Y55.6331
G01 X0.2060 Y55.6041
G01 X0.1922 Y55.5737
G01 X0.1812 Y55.5421
G01 X0.1615 Y55.4750
G01 X0.1536 Y55.4424
G01 X0.1488 Y55.4091
G01 X0.1472 Y55.3755
G01 X0.1472 Y1.6245
G01 X0.1492 Y1.5867
G01 X0.1553 Y1.5494
G00 Z2.0000
G00 X0.2904 Y1.5788
G01 F60.00
G01 Z-0.1000
G01 F120.00
G01 X0.3016 Y1.5273
G01 X0.3084 Y1.5029
G01 X0.3181 Y1.4795
G01 X0.3280 Y1.4612
G01 X0.3380 Y1.4462
G01 X0.3492 Y1.4322
G01 X0.3949 Y1.3794
G01 X0.4091 Y1.3645
G01 X0.4247 Y1.3510
G01 X0.4414 Y1.3391
G01 X0.4591 Y1.3290
G01 X0.4776 Y1.3205
G01 X0.4969 Y1.3139
G01 X0.5639 Y1.2942
G01 X0.5838 Y1.2893
G01 X0.6041 Y1.2864
G01 X0.6245 Y1.2855
G01 X84.3755 Y1.2855
G01 X84.3985 Y1.2867
G01 X84.4212 Y1.2904
G01 X84.4727 Y1.3016
G01 X84.4971 Y1.3084
G01 X84.5205 Y1.3181
G01 X84.5388 Y1.3280
G01 X84.5538 Y1.3380
G01 X84.5678 Y1.3492
G01 X84.6206 Y1.3949
G01 X84.6355 Y1.4091
G01 X84.6490 Y1.4247
G01 X84.6609 Y1.4415
G01 X84.6710 Y1.4591
G01 X84.6795 Y1.4776
G01 X84.6861 Y1.4969
G01 X84.7058 Y1.5639
G01 X84.7107 Y1.5838
G01 X84.7136 Y1.6041
G01 X84.7145 Y1.6245
G01 X84.7145 Y55.3755
G01 X84.7133 Y55.3985
G01 X84.7096 Y55.4212
G01 X84.6984 Y55.4727
G01 X84.6916 Y55.4971
G01 X84.6819 Y55.5205
G01 X84.6720 Y55.5388
G01 X84.6620 Y55.5538
G01 X84.6508 Y55.5678
G01 X84.6051 Y55.6206
G01 X84.5909 Y55.6355
G01 X84.5753 Y55.6490
G01 X84.5586 Y55.6609
G01 X84.5409 Y55.6710
G01 X84.5224 Y55.6795
G01 X84.5031 Y55.6861
G01 X84.4361 Y55.7058
G01 X84.4162 Y55.7107
G01 X84.3959 Y55.7136
G01 X84.3755 Y55.7145
G01 X0.6245 Y55.7145
G01 X0.6015 Y55.7133
G01 X0.5788 Y55.7096
G01 X0.5273 Y55.6984
G01 X0.5029 Y55.6916
G01 X0.4795 Y55.6819
G01 X0.4612 Y55.6720
G01 X0.4462 Y55.6620
G01 X0.4322 Y55.6508
G01 X0.3794 Y55.6051
G01 X0.3645 Y55.5909
G01 X0.3510 Y55.5753
G01 X0.3391 Y55.5586
G01 X0.3290 Y55.5409
G01 X0.3205 Y55.5224
G01 X0.3139 Y55.5031
G01 X0.2942 Y55.4361
G01 X0.2893 Y55.4162
G01 X0.2864 Y55.3959
G01 X0.2855 Y55.3755
G01 X0.2855 Y1.6245
G01 X0.2867 Y1.6015
G01 X0.2904 Y1.5788
G00 Z2.0000
G00 X0.4255 Y1.6082
G01 F60.00
G01 Z-0.1000
G01 F120.00
G01 X0.4367 Y1.5567
G01 X0.4391 Y1.5480
G01 X0.4430 Y1.5387
G01 X0.4461 Y1.5331
G01 X0.4497 Y1.5277
G01 X0.4537 Y1.5227
G01 X0.4994 Y1.4699
G01 X0.5045 Y1.4646
G01 X0.5100 Y1.4598
G01 X0.5160 Y1.4555
G01 X0.5223 Y1.4519
G01 X0.5289 Y1.4489
G01 X0.5358 Y1.4465
G01 X0.6029 Y1.4268
G01 X0.6100 Y1.4251
G01 X0.6172 Y1.4240
G01 X0.6245 Y1.4237
G01 X84.3755 Y1.4237
G01 X84.3837 Y1.4241
G01 X84.3918 Y1.4255
G01 X84.4433 Y1.4367
G01 X84.4520 Y1.4391
G01 X84.4604 Y1.4425
G01 X84.4669 Y1.4461
G01 X84.4723 Y1.4497
G01 X84.4773 Y1.4537
G01 X84.5301 Y1.4994
G01 X84.5354 Y1.5045
G01 X84.5402 Y1.5100
G01 X84.5445 Y1.5160
G01 X84.5481 Y1.5223
G01 X84.5511 Y1.5289
G01 X84.5535 Y1.5358
G01 X84.5732 Y1.6029
G01 X84.5749 Y1.6100
G01 X84.5760 Y1.6172
G01 X84.5763 Y1.6245
G01 X84.5763 Y55.3755
G01 X84.5759 Y55.3837
G01 X84.5745 Y55.3918
G01 X84.5633 Y55.4433
G01 X84.5609 Y55.4520
G01 X84.5575 Y55.4604
G01 X84.5539 Y55.4669
G01 X84.5503 Y55.4723
G01 X84.5463 Y55.4773
G01 X84.5006 Y55.5301
G01 X84.4955 Y55.5354
G01 X84.4900 Y55.5402
G01 X84.4840 Y55.5445
G01 X84.4777 Y55.5481
G01 X84.4711 Y55.5511
G01 X84.4642 Y55.5535
G01 X84.3971 Y55.5732
G01 X84.3900 Y55.5749
G01 X84.3828 Y55.5760
G01 X84.3755 Y55.5763
G01 X0.6245 Y55.5763
G01 X0.6163 Y55.5759
G01 X0.6082 Y55.5745
G01 X0.5567 Y55.5633
G01 X0.5480 Y55.5609
G01 X0.5396 Y55.5575
G01 X0.5331 Y55.5539
G01 X0.5277 Y55.5503
G01 X0.5227 Y55.5463
G01 X0.4699 Y55.5006
G01 X0.4646 Y55.4955
G01 X0.4598 Y55.4900
G01 X0.4555 Y55.4840
G01 X0.4519 Y55.4777
G01 X0.4489 Y55.4711
G01 X0.4465 Y55.4642
G01 X0.4268 Y55.3971
G01 X0.4251 Y55.3900
G01 X0.4240 Y55.3828
G01 X0.4237 Y55.3755
G01 X0.4237 Y1.6245
G01 X0.4241 Y1.6163
G01 X0.4255 Y1.6082
G00 Z2.0000
G00 X12.8818 Y29.8500
G01 F60.00
G01 Z-0.1000
G01 F120.00
G01 X12.8999 Y29.6314
G01 X12.9537 Y29.4187
G01 X13.0419 Y29.2178
G01 X13.1618 Y29.0342
G01 X13.3104 Y28.8728
G01 X13.4835 Y28.7381
G01 X13.6765 Y28.6336
G01 X13.8839 Y28.5624
G01 X14.1003 Y28.5263
G01 X14.3197 Y28.5263
G01 X14.5361 Y28.5624
G01 X14.7435 Y28.6336
G01 X14.9365 Y28.7380
G01 X15.1096 Y28.8728
G01 X15.2582 Y29.0342
G01 X15.3781 Y29.2178
G01 X15.4663 Y29.4187
G01 X15.5201 Y29.6314
G01 X15.5382 Y29.8500
G01 X15.5226 Y30.0389
G01 X15.5223 Y30.0453
G01 X15.5227 Y30.0530
G01 X15.5239 Y30.0607
G01 X15.5380 Y30.1292
G01 X15.5397 Y30.1360
G01 X15.5421 Y30.1427
G01 X15.5450 Y30.1491
G01 X15.5488 Y30.1556
G01 X15.5533 Y30.1617
G01 X15.5583 Y30.1674
G01 X15.6071 Y30.2173
G01 X15.6132 Y30.2229
G01 X15.6199 Y30.2279
G01 X15.6271 Y30.2320
G01 X15.6347 Y30.2354
G01 X15.6426 Y30.2380
G01 X15.7033 Y30.2538
G01 X15.7097 Y30.2552
G01 X15.7162 Y30.2560
G01 X15.7227 Y30.2563
G01 X30.4655 Y30.2563
G01 X30.4728 Y30.2560
G01 X30.4800 Y30.2549
G01 X30.4871 Y30.2532
G01 X30.5542 Y30.2335
G01 X30.5611 Y30.2311
G01 X30.5677 Y30.2281
G01 X30.5740 Y30.2245
G01 X30.5800 Y30.2202
G01 X30.5855 Y30.2154
G01 X30.5906 Y30.2101
G01 X30.6363 Y30.1573
G01 X30.6403 Y30.1523
G01 X30.6439 Y30.1469
G01 X30.6475 Y30.1404
G01 X30.6509 Y30.1320
G01 X30.6533 Y30.1233
G01 X30.6645 Y30.0718
G01 X30.6659 Y30.0637
G01 X30.6663 Y30.0555
G01 X30.6663 Y29.8362
G01 X30.6712 Y29.7903
G01 X30.7143 Y29.6749
G01 X30.7873 Y29.5773
G01 X30.8848 Y29.5043
G01 X31.0003 Y29.4612
G01 X31.0462 Y29.4563
G01 X32.9338 Y29.4563
G01 X32.9797 Y29.4612
G01 X33.0951 Y29.5043
G01 X33.1927 Y29.5773
G01 X33.2657 Y29.6749
G01 X33.2907 Y29.7419
G01 X33.2935 Y29.7484
G01 X33.2970 Y29.7546
G01 X33.3010 Y29.7605
G01 X33.3428 Y29.8165
G01 X33.3475 Y29.8221
G01 X33.3527 Y29.8273
G01 X33.3583 Y29.8319
G01 X33.3644 Y29.8360
G01 X33.3708 Y29.8395
G01 X33.3775 Y29.8424
G01 X33.4468 Y29.8681
G01 X33.4545 Y29.8701
G01 X33.4624 Y29.8713
G01 X33.4703 Y29.8717
G01 X33.4783 Y29.8712
G01 X33.4861 Y29.8699
G01 X33.5544 Y29.8551
G01 X33.5620 Y29.8530
G01 X33.5694 Y29.8501
G01 X33.5764 Y29.8465
G01 X33.5854 Y29.8405
G01 X33.6172 Y29.8157
G01 X33.6242 Y29.8095
G01 X33.6304 Y29.8028
G01 X33.8035 Y29.6681
G01 X33.9965 Y29.5636
G01 X34.2039 Y29.4924
G01 X34.4203 Y29.4563
G01 X34.6397 Y29.4563
G01 X34.8561 Y29.4924
G01 X35.0635 Y29.5636
G01 X35.2565 Y29.6680
G01 X35.4296 Y29.8028
G01 X35.5782 Y29.9642
G01 X35.6981 Y30.1478
G01 X35.7863 Y30.3487
G01 X35.8401 Y30.5614
G01 X35.8582 Y30.7800
G01 X35.8401 Y30.9986
G01 X35.7863 Y31.2113
G01 X35.6981 Y31.4122
G01 X35.5782 Y31.5958
G01 X35.4296 Y31.7572
G01 X35.2565 Y31.8920
G01 X35.1589 Y31.9447
G01 X35.1527 Y31.9485
G01 X35.1468 Y31.9529
G01 X35.1414 Y31.9578
G01 X35.0918 Y32.0070
G01 X35.0863 Y32.0130
G01 X35.0816 Y32.0196
G01 X35.0774 Y32.0268
G01 X35.0740 Y32.0344
G01 X35.0715 Y32.0424
G01 X35.0561 Y32.1022
G01 X35.0548 Y32.1085
G01 X35.0540 Y32.1149
G01 X35.0537 Y32.1213
G01 X35.0537 Y38.6799
G01 X35.0540 Y38.6872
G01 X35.0551 Y38.6944
G01 X35.0568 Y38.7015
G01 X35.0765 Y38.7686
G01 X35.0789 Y38.7754
G01 X35.0818 Y38.7820
G01 X35.0854 Y38.7882
G01 X35.0904 Y38.7951
G01 X35.1070 Y38.8158
G01 X35.1125 Y38.8219
G01 X35.1421 Y38.8515
G01 X35.1476 Y38.8564
G01 X35.1534 Y38.8608
G01 X35.1596 Y38.8646
G01 X35.2210 Y38.8981
G01 X35.2271 Y38.9011
G01 X35.2334 Y38.9035
G01 X35.2414 Y38.9057
G01 X35.2495 Y38.9071
G01 X35.2622 Y38.9074
G01 X35.3289 Y38.9035
G01 X35.3358 Y38.9028
G01 X35.3426 Y38.9014
G01 X35.3493 Y38.8995
G01 X35.4493 Y38.8651
G01 X35.6820 Y38.8263
G01 X35.9180 Y38.8263
G01 X36.1507 Y38.8651
G01 X36.3739 Y38.9417
G01 X36.5814 Y39.0540
G01 X36.7676 Y39.1990
G01 X36.9274 Y39.3725
G01 X37.0564 Y39.5701
G01 X37.1512 Y39.7861
G01 X37.2091 Y40.0149
G01 X37.2286 Y40.2500
G01 X37.2091 Y40.4851
G01 X37.1512 Y40.7139
G01 X37.0564 Y40.9299
G01 X36.9274 Y41.1274
G01 X36.7676 Y41.3010
G01 X36.5814 Y41.4460
G01 X36.3739 Y41.5583
G01 X36.1507 Y41.6349
G01 X35.9180 Y41.6737
G01 X35.6820 Y41.6737
G01 X35.4493 Y41.6349
G01 X35.2262 Y41.5583
G01 X35.0186 Y41.4460
G01 X34.8325 Y41.3010
G01 X34.6726 Y41.1274
G01 X34.5436 Y40.9299
G01 X34.4488 Y40.7139
G01 X34.3909 Y40.4851
G01 X34.3714 Y40.2500
G01 X34.3909 Y40.0149
G01 X34.4505 Y39.7797
G01 X34.4518 Y39.7735
G01 X34.4525 Y39.7672
G01 X34.4528 Y39.7580
G01 X34.4501 Y39.6881
G01 X34.4492 Y39.6790
G01 X34.4472 Y39.6700
G01 X34.4450 Y39.6633
G01 X34.4421 Y39.6568
G01 X34.4387 Y39.6506
G01 X34.4088 Y39.6023
G01 X34.4037 Y39.5950
G01 X34.3978 Y39.5884
G01 X34.1109 Y39.3016
G01 X34.0420 Y39.1821
G01 X34.0063 Y39.0489
G01 X34.0063 Y32.1213
G01 X34.0060 Y32.1140
G01 X34.0049 Y32.1068
G01 X34.0032 Y32.0997
G01 X33.9835 Y32.0327
G01 X33.9815 Y32.0267
G01 X33.9789 Y32.0208
G01 X33.9759 Y32.0152
G01 X33.9719 Y32.0090
G01 X33.9672 Y32.0033
G01 X33.9620 Y31.9980
G01 X33.9167 Y31.9560
G01 X33.9114 Y31.9514
G01 X33.9011 Y31.9447
G01 X33.8035 Y31.8920
G01 X33.6304 Y31.7572
G01 X33.6242 Y31.7505
G01 X33.6171 Y31.7443
G01 X33.6094 Y31.7390
G01 X33.5495 Y31.7030
G01 X33.5433 Y31.6996
G01 X33.5367 Y31.6969
G01 X33.5300 Y31.6947
G01 X33.5226 Y31.6931
G01 X33.5152 Y31.6922
G01 X33.5077 Y31.6921
G01 X33.4378 Y31.6942
G01 X33.4307 Y31.6947
G01 X33.4236 Y31.6960
G01 X33.4167 Y31.6978
G01 X33.4099 Y31.7003
G01 X33.4031 Y31.7037
G01 X33.3967 Y31.7076
G01 X33.3391 Y31.7471
G01 X33.3334 Y31.7514
G01 X33.3282 Y31.7562
G01 X33.3236 Y31.7612
G01 X33.3195 Y31.7666
G01 X33.3159 Y31.7723
G01 X33.2958 Y31.8073
G01 X33.2929 Y31.8129
G01 X33.2905 Y31.8187
G01 X33.2657 Y31.8851
G01 X33.1927 Y31.9827
G01 X33.0951 Y32.0557
G01 X32.9797 Y32.0988
G01 X32.9338 Y32.1037
G01 X31.0462 Y32.1037
G01 X31.0003 Y32.0988
G01 X30.8849 Y32.0557
G01 X30.7873 Y31.9827
G01 X30.7143 Y31.8852
G01 X30.6712 Y31.7697
G01 X30.6663 Y31.7238
G01 X30.6663 Y31.5045
G01 X30.6660 Y31.4972
G01 X30.6649 Y31.4900
G01 X30.6632 Y31.4829
G01 X30.6435 Y31.4158
G01 X30.6411 Y31.4089
G01 X30.6381 Y31.4023
G01 X30.6345 Y31.3960
G01 X30.6302 Y31.3900
G01 X30.6254 Y31.3845
G01 X30.6201 Y31.3794
G01 X30.5673 Y31.3337
G01 X30.5623 Y31.3297
G01 X30.5569 Y31.3261
G01 X30.5504 Y31.3225
G01 X30.5420 Y31.3191
G01 X30.5333 Y31.3167
G01 X30.4818 Y31.3055
G01 X30.4737 Y31.3041
G01 X30.4655 Y31.3037
G01 X15.0711 Y31.3037
G01 X14.9379 Y31.2680
G01 X14.8184 Y31.1991
G01 X14.7891 Y31.1698
G01 X14.7837 Y31.1649
G01 X14.7779 Y31.1605
G01 X14.7716 Y31.1567
G01 X14.7103 Y31.1232
G01 X14.7042 Y31.1202
G01 X14.6979 Y31.1178
G01 X14.6899 Y31.1156
G01 X14.6818 Y31.1142
G01 X14.6690 Y31.1139
G01 X14.6024 Y31.1178
G01 X14.5955 Y31.1185
G01 X14.5886 Y31.1199
G01 X14.5820 Y31.1218
G01 X14.5361 Y31.1376
G01 X14.3197 Y31.1737
G01 X14.1003 Y31.1737
G01 X13.8839 Y31.1376
G01 X13.6765 Y31.0664
G01 X13.4835 Y30.9620
G01 X13.3104 Y30.8272
G01 X13.1618 Y30.6658
G01 X13.0419 Y30.4822
G01 X12.9537 Y30.2813
G01 X12.8999 Y30.0686
G01 X12.8818 Y29.8500
G00 Z2.0000
G00 X13.0205 Y29.8500
G01 F60.00
G01 Z-0.1000
G01 F120.00
G01 X13.0367 Y29.6542
G01 X13.0849 Y29.4638
G01 X13.1638 Y29.2839
G01 X13.2713 Y29.1194
G01 X13.4044 Y28.9748
G01 X13.5594 Y28.8542
G01 X13.7322 Y28.7607
G01 X13.9180 Y28.6969
G01 X14.1118 Y28.6645
G01 X14.3082 Y28.6645
G01 X14.5020 Y28.6969
G01 X14.6878 Y28.7607
G01 X14.8606 Y28.8542
G01 X15.0156 Y28.9748
G01 X15.1487 Y29.1194
G01 X15.2562 Y29.2838
G01 X15.3351 Y29.4638
G01 X15.3833 Y29.6542
G01 X15.3995 Y29.8500
G01 X15.3848 Y30.0275
G01 X15.3841 Y30.0453
G01 X15.3852 Y30.0670
G01 X15.3885 Y30.0886
G01 X15.4026 Y30.1570
G01 X15.4074 Y30.1762
G01 X15.4141 Y30.1948
G01 X15.4223 Y30.2128
G01 X15.4330 Y30.2310
G01 X15.4454 Y30.2482
G01 X15.4594 Y30.2640
G01 X15.5083 Y30.3140
G01 X15.5254 Y30.3297
G01 X15.5440 Y30.3434
G01 X15.5641 Y30.3551
G01 X15.5854 Y30.3646
G01 X15.6077 Y30.3717
G01 X15.6683 Y30.3876
G01 X15.6862 Y30.3914
G01 X15.7044 Y30.3938
G01 X15.7227 Y30.3945
G01 X30.4655 Y30.3945
G01 X30.4859 Y30.3936
G01 X30.5062 Y30.3907
G01 X30.5261 Y30.3858
G01 X30.5931 Y30.3661
G01 X30.6124 Y30.3595
G01 X30.6309 Y30.3510
G01 X30.6486 Y30.3409
G01 X30.6653 Y30.3290
G01 X30.6809 Y30.3155
G01 X30.6951 Y30.3006
G01 X30.7408 Y30.2478
G01 X30.7520 Y30.2338
G01 X30.7620 Y30.2188
G01 X30.7707 Y30.2030
G01 X30.7816 Y30.1771
G01 X30.7884 Y30.1527
G01 X30.7996 Y30.1012
G01 X30.8033 Y30.0785
G01 X30.8045 Y30.0555
G01 X30.8045 Y29.8436
G01 X30.8068 Y29.8224
G01 X30.8369 Y29.7418
G01 X30.8861 Y29.6761
G01 X30.9518 Y29.6269
G01 X31.0324 Y29.5968
G01 X31.0537 Y29.5945
G01 X32.9263 Y29.5945
G01 X32.9476 Y29.5968
G01 X33.0282 Y29.6269
G01 X33.0939 Y29.6761
G01 X33.1431 Y29.7418
G01 X33.1615 Y29.7912
G01 X33.1695 Y29.8094
G01 X33.1791 Y29.8269
G01 X33.1903 Y29.8434
G01 X33.2322 Y29.8993
G01 X33.2452 Y29.9151
G01 X33.2597 Y29.9296
G01 X33.2755 Y29.9426
G01 X33.2924 Y29.9541
G01 X33.3104 Y29.9639
G01 X33.3292 Y29.9719
G01 X33.3946 Y29.9963
G01 X33.3947 Y29.9961
G01 X33.4054 Y30.0000
G01 X33.4270 Y30.0056
G01 X33.4490 Y30.0089
G01 X33.4713 Y30.0099
G01 X33.4935 Y30.0086
G01 X33.5155 Y30.0050
G01 X33.5838 Y29.9901
G01 X33.6051 Y29.9843
G01 X33.6257 Y29.9764
G01 X33.6455 Y29.9663
G01 X33.6705 Y29.9495
G01 X33.7023 Y29.9246
G01 X33.7227 Y29.9064
G01 X33.8795 Y29.7841
G01 X34.0522 Y29.6907
G01 X34.2380 Y29.6269
G01 X34.4318 Y29.5945
G01 X34.6282 Y29.5945
G01 X34.8220 Y29.6269
G01 X35.0078 Y29.6907
G01 X35.1806 Y29.7842
G01 X35.1860 Y29.7884
G01 X35.3356 Y29.9048
G01 X35.4687 Y30.0494
G01 X35.5762 Y30.2138
G01 X35.6551 Y30.3938
G01 X35.7033 Y30.5842
G01 X35.7195 Y30.7800
G01 X35.7033 Y30.9758
G01 X35.6551 Y31.1662
G01 X35.5762 Y31.3462
G01 X35.4687 Y31.5106
G01 X35.3356 Y31.6552
G01 X35.1806 Y31.7758
G01 X35.0931 Y31.8232
G01 X35.0756 Y31.8338
G01 X35.0592 Y31.8460
G01 X35.0440 Y31.8597
G01 X34.9944 Y31.9089
G01 X34.9792 Y31.9257
G01 X34.9658 Y31.9441
G01 X34.9541 Y31.9643
G01 X34.9447 Y31.9857
G01 X34.9376 Y32.0079
G01 X34.9222 Y32.0678
G01 X34.9185 Y32.0854
G01 X34.9162 Y32.1033
G01 X34.9155 Y32.1213
G01 X34.9155 Y38.6799
G01 X34.9164 Y38.7003
G01 X34.9193 Y38.7206
G01 X34.9242 Y38.7405
G01 X34.9439 Y38.8075
G01 X34.9505 Y38.8266
G01 X34.9588 Y38.8450
G01 X34.9689 Y38.8626
G01 X34.9827 Y38.8819
G01 X34.9994 Y38.9025
G01 X35.0148 Y38.9196
G01 X35.0444 Y38.9493
G01 X35.0595 Y38.9630
G01 X35.0759 Y38.9753
G01 X35.0934 Y38.9860
G01 X35.1547 Y39.0194
G01 X35.1718 Y39.0278
G01 X35.1896 Y39.0346
G01 X35.2119 Y39.0408
G01 X35.2347 Y39.0445
G01 X35.2578 Y39.0457
G01 X35.2703 Y39.0454
G01 X35.3369 Y39.0415
G01 X35.3563 Y39.0395
G01 X35.3755 Y39.0357
G01 X35.3942 Y39.0302
G01 X35.4834 Y38.9996
G01 X35.6935 Y38.9645
G01 X35.9065 Y38.9645
G01 X36.1166 Y38.9996
G01 X36.3181 Y39.0688
G01 X36.5055 Y39.1702
G01 X36.6736 Y39.3010
G01 X36.8179 Y39.4577
G01 X36.9344 Y39.6361
G01 X37.0200 Y39.8312
G01 X37.0723 Y40.0377
G01 X37.0899 Y40.2500
G01 X37.0723 Y40.4623
G01 X37.0200 Y40.6688
G01 X36.9344 Y40.8639
G01 X36.8179 Y41.0422
G01 X36.6736 Y41.1990
G01 X36.5055 Y41.3298
G01 X36.3181 Y41.4312
G01 X36.1166 Y41.5004
G01 X35.9065 Y41.5355
G01 X35.6935 Y41.5355
G01 X35.4834 Y41.5004
G01 X35.2819 Y41.4312
G01 X35.0945 Y41.3298
G01 X34.9264 Y41.1990
G01 X34.7821 Y41.0423
G01 X34.6656 Y40.8639
G01 X34.5800 Y40.6688
G01 X34.5277 Y40.4623
G01 X34.5101 Y40.2500
G01 X34.5277 Y40.0377
G01 X34.5845 Y39.8136
G01 X34.5881 Y39.7962
G01 X34.5903 Y39.7786
G01 X34.5910 Y39.7608
G01 X34.5909 Y39.7528
G01 X34.5883 Y39.6829
G01 X34.5858 Y39.6573
G01 X34.5802 Y39.6321
G01 X34.5739 Y39.6133
G01 X34.5659 Y39.5951
G01 X34.5562 Y39.5778
G01 X34.5263 Y39.5295
G01 X34.5121 Y39.5092
G01 X34.4955 Y39.4907
G01 X34.2216 Y39.2167
G01 X34.1708 Y39.1288
G01 X34.1445 Y39.0307
G01 X34.1445 Y32.1213
G01 X34.1436 Y32.1009
G01 X34.1407 Y32.0806
G01 X34.1358 Y32.0608
G01 X34.1161 Y31.9937
G01 X34.1104 Y31.9769
G01 X34.1033 Y31.9605
G01 X34.0949 Y31.9449
G01 X34.0835 Y31.9276
G01 X34.0705 Y31.9114
G01 X34.0561 Y31.8966
G01 X34.0108 Y31.8546
G01 X33.9957 Y31.8419
G01 X33.9816 Y31.8320
G01 X33.9669 Y31.8232
G01 X33.8794 Y31.7758
G01 X33.7237 Y31.6547
G01 X33.7023 Y31.6354
G01 X33.6806 Y31.6205
G01 X33.6207 Y31.5845
G01 X33.6032 Y31.5751
G01 X33.5849 Y31.5673
G01 X33.5659 Y31.5612
G01 X33.5454 Y31.5568
G01 X33.5245 Y31.5543
G01 X33.5035 Y31.5539
G01 X33.4337 Y31.5560
G01 X33.4136 Y31.5576
G01 X33.3938 Y31.5610
G01 X33.3744 Y31.5662
G01 X33.3555 Y31.5733
G01 X33.3365 Y31.5825
G01 X33.3185 Y31.5936
G01 X33.2609 Y31.6332
G01 X33.2451 Y31.6451
G01 X33.2305 Y31.6584
G01 X33.2177 Y31.6724
G01 X33.2061 Y31.6875
G01 X33.1960 Y31.7035
G01 X33.1759 Y31.7386
G01 X33.1678 Y31.7541
G01 X33.1610 Y31.7703
G01 X33.1431 Y31.8182
G01 X33.0939 Y31.8839
G01 X33.0282 Y31.9331
G01 X32.9476 Y31.9632
G01 X32.9264 Y31.9655
G01 X31.0537 Y31.9655
G01 X31.0324 Y31.9632
G01 X30.9518 Y31.9331
G01 X30.8861 Y31.8839
G01 X30.8369 Y31.8182
G01 X30.8068 Y31.7376
G01 X30.8045 Y31.7164
G01 X30.8045 Y31.5045
G01 X30.8036 Y31.4841
G01 X30.8007 Y31.4638
G01 X30.7958 Y31.4439
G01 X30.7761 Y31.3769
G01 X30.7695 Y31.3576
G01 X30.7610 Y31.3391
G01 X30.7509 Y31.3214
G01 X30.7390 Y31.3047
G01 X30.7255 Y31.2891
G01 X30.7106 Y31.2749
G01 X30.6578 Y31.2292
G01 X30.6438 Y31.2180
G01 X30.6288 Y31.2080
G01 X30.6130 Y31.1993
G01 X30.5871 Y31.1884
G01 X30.5627 Y31.1816
G01 X30.5112 Y31.1704
G01 X30.4885 Y31.1667
G01 X30.4655 Y31.1655
G01 X15.0893 Y31.1655
G01 X14.9912 Y31.1392
G01 X14.9033 Y31.0884
G01 X14.8869 Y31.0720
G01 X14.8717 Y31.0583
G01 X14.8554 Y31.0460
G01 X14.8379 Y31.0353
G01 X14.7766 Y31.0019
G01 X14.7595 Y30.9935
G01 X14.7417 Y30.9866
G01 X14.7194 Y30.9805
G01 X14.6966 Y30.9768
G01 X14.6735 Y30.9756
G01 X14.6610 Y30.9759
G01 X14.5944 Y30.9798
G01 X14.5750 Y30.9818
G01 X14.5558 Y30.9856
G01 X14.5371 Y30.9911
G01 X14.5020 Y31.0031
G01 X14.3082 Y31.0355
G01 X14.1118 Y31.0355
G01 X13.9180 Y31.0031
G01 X13.7322 Y30.9393
G01 X13.5594 Y30.8458
G01 X13.4044 Y30.7252
G01 X13.2713 Y30.5806
G01 X13.1638 Y30.4162
G01 X13.0849 Y30.2362
G01 X13.0367 Y30.0458
G01 X13.0205 Y29.8500
G00 Z2.0000
G00 X13.0999 Y29.9487
G01 F60.00
G01 Z-0.1000
G01 F120.00
G01 X13.0996 Y29.9488
G01 X13.0952 Y29.8606
G01 X13.0952 Y29.8394
G01 X13.0996 Y29.7512
G01 X13.1016 Y29.7302
G01 X13.1150 Y29.6403
G01 X13.1187 Y29.6222
G01 X13.1402 Y29.5365
G01 X13.1465 Y29.5164
G01 X13.1463 Y29.5163
G01 X13.1760 Y29.4331
G01 X13.1841 Y29.4136
G01 X13.2219 Y29.3338
G01 X13.2318 Y29.3152
G01 X13.2772 Y29.2394
G01 X13.2879 Y29.2233
G01 X13.3416 Y29.1509
G01 X13.3553 Y29.1349
G01 X13.3550 Y29.1346
G01 X13.4143 Y29.0692
G01 X13.4292 Y29.0543
G01 X13.4946 Y28.9950
G01 X13.5109 Y28.9816
G01 X13.5819 Y28.9290
G01 X13.5994 Y28.9172
G01 X13.6752 Y28.8718
G01 X13.6938 Y28.8619
G01 X13.7736 Y28.8241
G01 X13.7931 Y28.8160
G01 X13.8763 Y28.7863
G01 X13.8965 Y28.7802
G01 X13.9822 Y28.7587
G01 X14.0003 Y28.7550
G01 X14.0902 Y28.7416
G01 X14.1113 Y28.7399
G01 X14.1112 Y28.7396
G01 X14.1994 Y28.7352
G01 X14.2206 Y28.7352
G01 X14.3088 Y28.7396
G01 X14.3298 Y28.7416
G01 X14.4171 Y28.7546
G01 X14.4378 Y28.7587
G01 X14.5235 Y28.7802
G01 X14.5437 Y28.7863
G01 X14.6269 Y28.8160
G01 X14.6464 Y28.8241
G01 X14.7262 Y28.8619
G01 X14.7448 Y28.8718
G01 X14.8206 Y28.9172
G01 X14.8367 Y28.9279
G01 X14.9091 Y28.9816
G01 X14.9251 Y28.9953
G01 X14.9254 Y28.9950
G01 X14.9908 Y29.0543
G01 X15.0057 Y29.0692
G01 X15.0650 Y29.1346
G01 X15.0784 Y29.1509
G01 X15.1310 Y29.2219
G01 X15.1428 Y29.2394
G01 X15.1882 Y29.3152
G01 X15.1981 Y29.3338
G01 X15.2359 Y29.4136
G01 X15.2440 Y29.4331
G01 X15.2737 Y29.5163
G01 X15.2798 Y29.5365
G01 X15.3013 Y29.6222
G01 X15.3050 Y29.6403
G01 X15.3184 Y29.7302
G01 X15.3201 Y29.7513
G01 X15.3204 Y29.7512
G01 X15.3248 Y29.8394
G01 X15.3248 Y29.8606
G01 X15.3204 Y29.9488
G01 X15.3184 Y29.9698
G01 X15.3054 Y30.0571
G01 X15.3013 Y30.0778
G01 X15.2798 Y30.1635
G01 X15.2737 Y30.1837
G01 X15.2440 Y30.2669
G01 X15.2359 Y30.2864
G01 X15.1981 Y30.3662
G01 X15.1890 Y30.3834
G01 X15.2705 Y30.4649
G01 X30.8750 Y30.4649
G01 X30.8750 Y29.8800
G01 X30.8763 Y29.8563
G01 X30.8802 Y29.8329
G01 X30.8867 Y29.8100
G01 X30.8956 Y29.7881
G01 X30.9056 Y29.7695
G01 X30.9173 Y29.7519
G01 X30.9307 Y29.7356
G01 X30.9456 Y29.7207
G01 X30.9619 Y29.7073
G01 X30.9795 Y29.6956
G01 X30.9981 Y29.6856
G01 X31.0200 Y29.6767
G01 X31.0429 Y29.6702
G01 X31.0663 Y29.6663
G01 X31.0900 Y29.6650
G01 X32.8900 Y29.6650
G01 X32.9090 Y29.6658
G01 X32.9278 Y29.6683
G01 X32.9463 Y29.6725
G01 X32.9644 Y29.6783
G01 X32.9819 Y29.6856
G01 X33.0006 Y29.6956
G01 X33.0181 Y29.7073
G01 X33.0344 Y29.7207
G01 X33.0493 Y29.7356
G01 X33.0627 Y29.7519
G01 X33.0744 Y29.7694
G01 X33.0844 Y29.7881
G01 X33.0917 Y29.8056
G01 X33.0975 Y29.8237
G01 X33.1017 Y29.8422
G01 X33.1042 Y29.8610
G01 X33.1050 Y29.8800
G01 X33.1050 Y31.6800
G01 X33.1037 Y31.7037
G01 X33.0998 Y31.7271
G01 X33.0933 Y31.7500
G01 X33.0844 Y31.7719
G01 X33.0744 Y31.7906
G01 X33.0627 Y31.8081
G01 X33.0493 Y31.8244
G01 X33.0344 Y31.8393
G01 X33.0181 Y31.8527
G01 X33.0006 Y31.8644
G01 X32.9819 Y31.8744
G01 X32.9600 Y31.8833
G01 X32.9371 Y31.8898
G01 X32.9137 Y31.8937
G01 X32.8900 Y31.8950
G01 X31.0900 Y31.8950
G01 X31.0663 Y31.8937
G01 X31.0429 Y31.8898
G01 X31.0200 Y31.8833
G01 X30.9981 Y31.8744
G01 X30.9794 Y31.8644
G01 X30.9619 Y31.8527
G01 X30.9456 Y31.8393
G01 X30.9307 Y31.8244
G01 X30.9173 Y31.8081
G01 X30.9056 Y31.7906
G01 X30.8956 Y31.7719
G01 X30.8867 Y31.7500
G01 X30.8802 Y31.7271
G01 X30.8763 Y31.7037
G01 X30.8750 Y31.6800
G01 X30.8750 Y31.0951
G01 X15.1400 Y31.0951
G01 X15.1196 Y31.0943
G01 X15.0986 Y31.0923
G01 X15.0889 Y31.0908
G01 X15.0682 Y31.0867
G01 X15.0587 Y31.0843
G01 X15.0385 Y31.0782
G01 X15.0293 Y31.0749
G01 X15.0098 Y31.0668
G01 X15.0009 Y31.0626
G01 X14.9823 Y31.0527
G01 X14.9739 Y31.0476
G01 X14.9577 Y31.0370
G01 X14.9484 Y31.0301
G01 X14.9324 Y31.0164
G01 X14.9321 Y31.0167
G01 X14.9172 Y31.0028
G01 X14.7433 Y30.8290
G01 X14.7262 Y30.8381
G01 X14.6464 Y30.8759
G01 X14.6269 Y30.8840
G01 X14.5437 Y30.9137
G01 X14.5235 Y30.9198
G01 X14.4378 Y30.9413
G01 X14.4197 Y30.9450
G01 X14.3298 Y30.9584
G01 X14.3087 Y30.9601
G01 X14.3088 Y30.9604
G01 X14.2206 Y30.9648
G01 X14.1994 Y30.9648
G01 X14.1112 Y30.9604
G01 X14.0902 Y30.9584
G01 X14.0029 Y30.9454
G01 X13.9822 Y30.9413
G01 X13.8965 Y30.9198
G01 X13.8763 Y30.9137
G01 X13.7931 Y30.8840
G01 X13.7736 Y30.8759
G01 X13.6938 Y30.8381
G01 X13.6752 Y30.8282
G01 X13.5994 Y30.7828
G01 X13.5833 Y30.7721
G01 X13.5109 Y30.7184
G01 X13.4949 Y30.7047
G01 X13.4946 Y30.7050
G01 X13.4292 Y30.6457
G01 X13.4143 Y30.6308
G01 X13.3550 Y30.5654
G01 X13.3416 Y30.5491
G01 X13.2890 Y30.4781
G01 X13.2772 Y30.4606
G01 X13.2318 Y30.3848
G01 X13.2219 Y30.3662
G01 X13.1841 Y30.2864
G01 X13.1760 Y30.2669
G01 X13.1463 Y30.1837
G01 X13.1402 Y30.1635
G01 X13.1187 Y30.0778
G01 X13.1150 Y30.0597
G01 X13.1016 Y29.9698
G01 X13.0999 Y29.9487
G00 Z2.0000
G00 X13.2378 Y29.9420
G01 F60.00
G01 Z-0.1000
G01 F120.00
G01 X13.2333 Y29.8538
G01 X13.2333 Y29.8462
G01 X13.2376 Y29.7580
G01 X13.2384 Y29.7505
G01 X13.2515 Y29.6622
G01 X13.2528 Y29.6558
G01 X13.2743 Y29.5701
G01 X13.2764 Y29.5629
G01 X13.3062 Y29.4797
G01 X13.3091 Y29.4727
G01 X13.3468 Y29.3929
G01 X13.3504 Y29.3863
G01 X13.3958 Y29.3105
G01 X13.3996 Y29.3047
G01 X13.4526 Y29.2333
G01 X13.4574 Y29.2275
G01 X13.5167 Y29.1620
G01 X13.5220 Y29.1567
G01 X13.5875 Y29.0974
G01 X13.5933 Y29.0926
G01 X13.6642 Y29.0400
G01 X13.6705 Y29.0358
G01 X13.7463 Y28.9904
G01 X13.7529 Y28.9868
G01 X13.8327 Y28.9491
G01 X13.8397 Y28.9462
G01 X13.9229 Y28.9164
G01 X13.9301 Y28.9143
G01 X14.0158 Y28.8928
G01 X14.0222 Y28.8915
G01 X14.1105 Y28.8784
G01 X14.1180 Y28.8776
G01 X14.2062 Y28.8733
G01 X14.2138 Y28.8733
G01 X14.3020 Y28.8776
G01 X14.3095 Y28.8784
G01 X14.3969 Y28.8913
G01 X14.4042 Y28.8928
G01 X14.4899 Y28.9143
G01 X14.4971 Y28.9164
G01 X14.5803 Y28.9462
G01 X14.5873 Y28.9491
G01 X14.6671 Y28.9868
G01 X14.6737 Y28.9904
G01 X14.7495 Y29.0358
G01 X14.7553 Y29.0396
G01 X14.8267 Y29.0926
G01 X14.8325 Y29.0974
G01 X14.8980 Y29.1567
G01 X14.9033 Y29.1620
G01 X14.9626 Y29.2275
G01 X14.9674 Y29.2333
G01 X15.0200 Y29.3042
G01 X15.0242 Y29.3105
G01 X15.0696 Y29.3863
G01 X15.0732 Y29.3929
G01 X15.1109 Y29.4727
G01 X15.1138 Y29.4797
G01 X15.1436 Y29.5629
G01 X15.1457 Y29.5701
G01 X15.1672 Y29.6558
G01 X15.1685 Y29.6622
G01 X15.1816 Y29.7505
G01 X15.1824 Y29.7580
G01 X15.1867 Y29.8462
G01 X15.1867 Y29.8538
G01 X15.1824 Y29.9420
G01 X15.1816 Y29.9495
G01 X15.1687 Y30.0369
G01 X15.1672 Y30.0442
G01 X15.1457 Y30.1299
G01 X15.1436 Y30.1371
G01 X15.1138 Y30.2203
G01 X15.1109 Y30.2273
G01 X15.0732 Y30.3071
G01 X15.0696 Y30.3137
G01 X15.0242 Y30.3895
G01 X15.0140 Y30.4039
G01 X15.2133 Y30.6031
G01 X31.0132 Y30.6031
G01 X31.0132 Y29.8800
G01 X31.0137 Y29.8715
G01 X31.0151 Y29.8632
G01 X31.0174 Y29.8550
G01 X31.0206 Y29.8472
G01 X31.0241 Y29.8405
G01 X31.0283 Y29.8343
G01 X31.0331 Y29.8284
G01 X31.0384 Y29.8231
G01 X31.0443 Y29.8183
G01 X31.0505 Y29.8141
G01 X31.0572 Y29.8106
G01 X31.0650 Y29.8074
G01 X31.0732 Y29.8051
G01 X31.0815 Y29.8037
G01 X31.0900 Y29.8032
G01 X32.8900 Y29.8032
G01 X32.8968 Y29.8035
G01 X32.9035 Y29.8044
G01 X32.9101 Y29.8059
G01 X32.9166 Y29.8079
G01 X32.9228 Y29.8106
G01 X32.9295 Y29.8141
G01 X32.9358 Y29.8183
G01 X32.9416 Y29.8231
G01 X32.9469 Y29.8284
G01 X32.9517 Y29.8342
G01 X32.9559 Y29.8405
G01 X32.9594 Y29.8472
G01 X32.9621 Y29.8534
G01 X32.9641 Y29.8599
G01 X32.9656 Y29.8665
G01 X32.9665 Y29.8732
G01 X32.9668 Y29.8800
G01 X32.9668 Y31.6800
G01 X32.9663 Y31.6885
G01 X32.9649 Y31.6968
G01 X32.9626 Y31.7050
G01 X32.9594 Y31.7128
G01 X32.9559 Y31.7195
G01 X32.9517 Y31.7257
G01 X32.9469 Y31.7316
G01 X32.9416 Y31.7369
G01 X32.9357 Y31.7417
G01 X32.9295 Y31.7459
G01 X32.9228 Y31.7494
G01 X32.9150 Y31.7526
G01 X32.9068 Y31.7549
G01 X32.8985 Y31.7563
G01 X32.8900 Y31.7568
G01 X31.0900 Y31.7568
G01 X31.0815 Y31.7563
G01 X31.0732 Y31.7549
G01 X31.0650 Y31.7526
G01 X31.0572 Y31.7494
G01 X31.0505 Y31.7459
G01 X31.0443 Y31.7417
G01 X31.0384 Y31.7369
G01 X31.0331 Y31.7316
G01 X31.0283 Y31.7257
G01 X31.0241 Y31.7195
G01 X31.0206 Y31.7128
G01 X31.0174 Y31.7050
G01 X31.0151 Y31.6968
G01 X31.0137 Y31.6885
G01 X31.0132 Y31.6800
G01 X31.0132 Y30.9569
G01 X15.1400 Y30.9569
G01 X15.1264 Y30.9563
G01 X15.1092 Y30.9541
G01 X15.0923 Y30.9502
G01 X15.0851 Y30.9481
G01 X15.0689 Y30.9419
G01 X15.0600 Y30.9377
G01 X15.0449 Y30.9291
G01 X15.0387 Y30.9249
G01 X15.0250 Y30.9142
G01 X15.0149 Y30.9051
G01 X14.7639 Y30.6540
G01 X14.7495 Y30.6642
G01 X14.6737 Y30.7096
G01 X14.6671 Y30.7132
G01 X14.5873 Y30.7509
G01 X14.5803 Y30.7538
G01 X14.4971 Y30.7836
G01 X14.4899 Y30.7857
G01 X14.4042 Y30.8072
G01 X14.3969 Y30.8087
G01 X14.3095 Y30.8216
G01 X14.3020 Y30.8224
G01 X14.2138 Y30.8267
G01 X14.2062 Y30.8267
G01 X14.1180 Y30.8224
G01 X14.1105 Y30.8216
G01 X14.0231 Y30.8087
G01 X14.0158 Y30.8072
G01 X13.9301 Y30.7857
G01 X13.9229 Y30.7836
G01 X13.8397 Y30.7538
G01 X13.8327 Y30.7509
G01 X13.7529 Y30.7132
G01 X13.7463 Y30.7096
G01 X13.6705 Y30.6642
G01 X13.6647 Y30.6604
G01 X13.5933 Y30.6074
G01 X13.5875 Y30.6026
G01 X13.5220 Y30.5433
G01 X13.5167 Y30.5380
G01 X13.4574 Y30.4725
G01 X13.4526 Y30.4667
G01 X13.4000 Y30.3958
G01 X13.3958 Y30.3895
G01 X13.3504 Y30.3137
G01 X13.3468 Y30.3071
G01 X13.3091 Y30.2273
G01 X13.3062 Y30.2203
G01 X13.2764 Y30.1371
G01 X13.2743 Y30.1299
G01 X13.2528 Y30.0442
G01 X13.2515 Y30.0378
G01 X13.2384 Y29.9495
G01 X13.2378 Y29.9420
G00 Z2.0000
G00 X27.8714 Y40.2500
G01 F60.00
G01 Z-0.1000
G01 F120.00
G01 X27.8909 Y40.0149
G01 X27.9488 Y39.7861
G01 X28.0436 Y39.5701
G01 X28.1726 Y39.3726
G01 X28.3324 Y39.1990
G01 X28.5186 Y39.0540
G01 X28.7261 Y38.9417
G01 X28.9493 Y38.8651
G01 X29.1820 Y38.8263
G01 X29.4180 Y38.8263
G01 X29.6507 Y38.8651
G01 X29.8739 Y38.9417
G01 X30.0814 Y39.0540
G01 X30.2676 Y39.1990
G01 X30.4274 Y39.3725
G01 X30.5564 Y39.5701
G01 X30.6512 Y39.7861
G01 X30.7091 Y40.0149
G01 X30.7286 Y40.2500
G01 X30.7091 Y40.4851
G01 X30.6512 Y40.7139
G01 X30.5564 Y40.9299
G01 X30.4274 Y41.1274
G01 X30.2676 Y41.3010
G01 X30.0814 Y41.4460
G01 X29.8739 Y41.5583
G01 X29.6507 Y41.6349
G01 X29.4180 Y41.6737
G01 X29.1820 Y41.6737
G01 X28.9493 Y41.6349
G01 X28.7262 Y41.5583
G01 X28.5186 Y41.4460
G01 X28.3325 Y41.3010
G01 X28.1726 Y41.1274
G01 X28.0436 Y40.9299
G01 X27.9488 Y40.7139
G01 X27.8909 Y40.4851
G01 X27.8714 Y40.2500
G00 Z2.0000
G00 X28.0101 Y40.2500
G01 F60.00
G01 Z-0.1000
G01 F120.00
G01 X28.0277 Y40.0377
G01 X28.0800 Y39.8312
G01 X28.1656 Y39.6361
G01 X28.2821 Y39.4578
G01 X28.4264 Y39.3010
G01 X28.5945 Y39.1702
G01 X28.7819 Y39.0688
G01 X28.9834 Y38.9996
G01 X29.1935 Y38.9645
G01 X29.4065 Y38.9645
G01 X29.6166 Y38.9996
G01 X29.8181 Y39.0688
G01 X30.0055 Y39.1702
G01 X30.1736 Y39.3010
G01 X30.3179 Y39.4577
G01 X30.4344 Y39.6361
G01 X30.5200 Y39.8312
G01 X30.5723 Y40.0377
G01 X30.5899 Y40.2500
G01 X30.5723 Y40.4623
G01 X30.5200 Y40.6688
G01 X30.4344 Y40.8639
G01 X30.3179 Y41.0422
G01 X30.1736 Y41.1990
G01 X30.0055 Y41.3298
G01 X29.8181 Y41.4312
G01 X29.6166 Y41.5004
G01 X29.4065 Y41.5355
G01 X29.1935 Y41.5355
G01 X28.9834 Y41.5004
G01 X28.7819 Y41.4312
G01 X28.5945 Y41.3298
G01 X28.4264 Y41.1990
G01 X28.2821 Y41.0423
G01 X28.1656 Y40.8639
G01 X28.0800 Y40.6688
G01 X28.0277 Y40.4623
G01 X28.0101 Y40.2500
G00 Z2.0000
G00 X28.0904 Y40.3586
G01 F60.00
G01 Z-0.1000
G01 F120.00
G01 X28.0900 Y40.3586
G01 X28.0852 Y40.2606
G01 X28.0852 Y40.2394
G01 X28.0900 Y40.1414
G01 X28.0921 Y40.1204
G01 X28.1069 Y40.0207
G01 X28.1106 Y40.0027
G01 X28.1345 Y39.9075
G01 X28.1406 Y39.8873
G01 X28.1737 Y39.7949
G01 X28.1817 Y39.7754
G01 X28.2237 Y39.6867
G01 X28.2336 Y39.6681
G01 X28.2841 Y39.5839
G01 X28.2948 Y39.5678
G01 X28.3543 Y39.4875
G01 X28.3680 Y39.4715
G01 X28.3677 Y39.4712
G01 X28.4336 Y39.3985
G01 X28.4485 Y39.3836
G01 X28.5212 Y39.3177
G01 X28.5375 Y39.3043
G01 X28.6163 Y39.2458
G01 X28.6339 Y39.2341
G01 X28.7181 Y39.1836
G01 X28.7367 Y39.1737
G01 X28.8254 Y39.1317
G01 X28.8449 Y39.1237
G01 X28.9373 Y39.0906
G01 X28.9575 Y39.0845
G01 X29.0527 Y39.0606
G01 X29.0707 Y39.0569
G01 X29.1704 Y39.0421
G01 X29.1914 Y39.0404
G01 X29.1914 Y39.0400
G01 X29.2894 Y39.0352
G01 X29.3106 Y39.0352
G01 X29.4086 Y39.0400
G01 X29.4296 Y39.0421
G01 X29.5266 Y39.0565
G01 X29.5473 Y39.0606
G01 X29.6425 Y39.0845
G01 X29.6627 Y39.0906
G01 X29.7551 Y39.1237
G01 X29.7746 Y39.1317
G01 X29.8633 Y39.1737
G01 X29.8819 Y39.1836
G01 X29.9661 Y39.2341
G01 X29.9822 Y39.2448
G01 X30.0625 Y39.3043
G01 X30.0785 Y39.3180
G01 X30.0788 Y39.3177
G01 X30.1515 Y39.3836
G01 X30.1664 Y39.3985
G01 X30.2323 Y39.4712
G01 X30.2457 Y39.4875
G01 X30.3042 Y39.5663
G01 X30.3159 Y39.5839
G01 X30.3664 Y39.6681
G01 X30.3763 Y39.6867
G01 X30.4183 Y39.7754
G01 X30.4263 Y39.7949
G01 X30.4594 Y39.8873
G01 X30.4655 Y39.9075
G01 X30.4894 Y40.0027
G01 X30.4931 Y40.0207
G01 X30.5079 Y40.1204
G01 X30.5096 Y40.1414
G01 X30.5100 Y40.1414
G01 X30.5148 Y40.2394
G01 X30.5148 Y40.2606
G01 X30.5100 Y40.3586
G01 X30.5079 Y40.3796
G01 X30.4935 Y40.4766
G01 X30.4894 Y40.4973
G01 X30.4655 Y40.5925
G01 X30.4592 Y40.6126
G01 X30.4594 Y40.6127
G01 X30.4263 Y40.7051
G01 X30.4183 Y40.7246
G01 X30.3763 Y40.8133
G01 X30.3664 Y40.8319
G01 X30.3159 Y40.9161
G01 X30.3052 Y40.9322
G01 X30.2457 Y41.0125
G01 X30.2320 Y41.0285
G01 X30.2323 Y41.0288
G01 X30.1664 Y41.1015
G01 X30.1515 Y41.1164
G01 X30.0788 Y41.1823
G01 X30.0625 Y41.1957
G01 X29.9837 Y41.2542
G01 X29.9661 Y41.2659
G01 X29.8819 Y41.3164
G01 X29.8633 Y41.3263
G01 X29.7746 Y41.3683
G01 X29.7551 Y41.3763
G01 X29.6627 Y41.4094
G01 X29.6425 Y41.4155
G01 X29.5473 Y41.4394
G01 X29.5293 Y41.4431
G01 X29.4296 Y41.4579
G01 X29.4086 Y41.4596
G01 X29.4086 Y41.4600
G01 X29.3106 Y41.4648
G01 X29.2894 Y41.4648
G01 X29.1914 Y41.4600
G01 X29.1704 Y41.4579
G01 X29.0734 Y41.4435
G01 X29.0527 Y41.4394
G01 X28.9575 Y41.4155
G01 X28.9374 Y41.4092
G01 X28.9373 Y41.4094
G01 X28.8449 Y41.3763
G01 X28.8254 Y41.3683
G01 X28.7367 Y41.3263
G01 X28.7181 Y41.3164
G01 X28.6339 Y41.2659
G01 X28.6178 Y41.2552
G01 X28.5375 Y41.1957
G01 X28.5215 Y41.1820
G01 X28.5212 Y41.1823
G01 X28.4485 Y41.1164
G01 X28.4336 Y41.1015
G01 X28.3677 Y41.0288
G01 X28.3543 Y41.0125
G01 X28.2958 Y40.9337
G01 X28.2841 Y40.9161
G01 X28.2336 Y40.8319
G01 X28.2237 Y40.8133
G01 X28.1817 Y40.7246
G01 X28.1737 Y40.7051
G01 X28.1406 Y40.6127
G01 X28.1345 Y40.5925
G01 X28.1106 Y40.4973
G01 X28.1069 Y40.4793
G01 X28.0921 Y40.3796
G01 X28.0904 Y40.3586
G00 Z2.0000
G00 X28.2282 Y40.3518
G01 F60.00
G01 Z-0.1000
G01 F120.00
G01 X28.2233 Y40.2538
G01 X28.2233 Y40.2462
G01 X28.2281 Y40.1482
G01 X28.2288 Y40.1407
G01 X28.2434 Y40.0427
G01 X28.2447 Y40.0362
G01 X28.2686 Y39.9411
G01 X28.2707 Y39.9338
G01 X28.3038 Y39.8414
G01 X28.3067 Y39.8345
G01 X28.3487 Y39.7458
G01 X28.3522 Y39.7391
G01 X28.4027 Y39.6549
G01 X28.4065 Y39.6492
G01 X28.4653 Y39.5699
G01 X28.4701 Y39.5640
G01 X28.5360 Y39.4913
G01 X28.5413 Y39.4860
G01 X28.6140 Y39.4201
G01 X28.6199 Y39.4153
G01 X28.6987 Y39.3568
G01 X28.7049 Y39.3527
G01 X28.7891 Y39.3022
G01 X28.7958 Y39.2987
G01 X28.8845 Y39.2567
G01 X28.8914 Y39.2538
G01 X28.9838 Y39.2207
G01 X28.9911 Y39.2186
G01 X29.0862 Y39.1947
G01 X29.0927 Y39.1934
G01 X29.1907 Y39.1788
G01 X29.1982 Y39.1781
G01 X29.2962 Y39.1733
G01 X29.3038 Y39.1733
G01 X29.4018 Y39.1781
G01 X29.4093 Y39.1788
G01 X29.5064 Y39.1932
G01 X29.5138 Y39.1947
G01 X29.6089 Y39.2186
G01 X29.6162 Y39.2207
G01 X29.7086 Y39.2538
G01 X29.7155 Y39.2567
G01 X29.8042 Y39.2987
G01 X29.8109 Y39.3022
G01 X29.8951 Y39.3527
G01 X29.9008 Y39.3565
G01 X29.9801 Y39.4153
G01 X29.9860 Y39.4201
G01 X30.0587 Y39.4860
G01 X30.0640 Y39.4913
G01 X30.1299 Y39.5640
G01 X30.1347 Y39.5699
G01 X30.1932 Y39.6487
G01 X30.1973 Y39.6549
G01 X30.2478 Y39.7391
G01 X30.2513 Y39.7458
G01 X30.2933 Y39.8345
G01 X30.2962 Y39.8414
G01 X30.3293 Y39.9338
G01 X30.3314 Y39.9411
G01 X30.3553 Y40.0362
G01 X30.3566 Y40.0427
G01 X30.3712 Y40.1407
G01 X30.3719 Y40.1482
G01 X30.3767 Y40.2462
G01 X30.3767 Y40.2538
G01 X30.3719 Y40.3518
G01 X30.3712 Y40.3593
G01 X30.3568 Y40.4564
G01 X30.3553 Y40.4638
G01 X30.3314 Y40.5589
G01 X30.3293 Y40.5662
G01 X30.2962 Y40.6586
G01 X30.2933 Y40.6655
G01 X30.2513 Y40.7542
G01 X30.2478 Y40.7609
G01 X30.1973 Y40.8451
G01 X30.1935 Y40.8508
G01 X30.1347 Y40.9301
G01 X30.1299 Y40.9360
G01 X30.0640 Y41.0087
G01 X30.0587 Y41.0140
G01 X29.9860 Y41.0799
G01 X29.9801 Y41.0847
G01 X29.9013 Y41.1432
G01 X29.8951 Y41.1473
G01 X29.8109 Y41.1978
G01 X29.8042 Y41.2013
G01 X29.7155 Y41.2433
G01 X29.7086 Y41.2462
G01 X29.6162 Y41.2793
G01 X29.6089 Y41.2814
G01 X29.5138 Y41.3053
G01 X29.5073 Y41.3066
G01 X29.4093 Y41.3212
G01 X29.4018 Y41.3219
G01 X29.3038 Y41.3267
G01 X29.2962 Y41.3267
G01 X29.1982 Y41.3219
G01 X29.1907 Y41.3212
G01 X29.0936 Y41.3068
G01 X29.0862 Y41.3053
G01 X28.9911 Y41.2814
G01 X28.9838 Y41.2793
G01 X28.8914 Y41.2462
G01 X28.8845 Y41.2433
G01 X28.7958 Y41.2013
G01 X28.7891 Y41.1978
G01 X28.7049 Y41.1473
G01 X28.6992 Y41.1435
G01 X28.6199 Y41.0847
G01 X28.6140 Y41.0799
G01 X28.5413 Y41.0140
G01 X28.5360 Y41.0087
G01 X28.4701 Y40.9360
G01 X28.4653 Y40.9301
G01 X28.4068 Y40.8513
G01 X28.4027 Y40.8451
G01 X28.3522 Y40.7609
G01 X28.3487 Y40.7542
G01 X28.3067 Y40.6655
G01 X28.3038 Y40.6586
G01 X28.2707 Y40.5662
G01 X28.2686 Y40.5589
G01 X28.2447 Y40.4638
G01 X28.2434 Y40.4573
G01 X28.2288 Y40.3593
G01 X28.2282 Y40.3518
G00 Z2.0000
G00 X28.0101 Y44.7500
G01 F60.00
G01 Z-0.1000
G01 F120.00
G01 X28.0277 Y44.5377
G01 X28.0800 Y44.3312
G01 X28.1656 Y44.1361
G01 X28.2821 Y43.9578
G01 X28.4264 Y43.8010
G01 X28.5945 Y43.6702
G01 X28.7819 Y43.5688
G01 X28.9834 Y43.4996
G01 X29.1935 Y43.4645
G01 X29.4065 Y43.4645
G01 X29.6166 Y43.4996
G01 X29.8181 Y43.5688
G01 X30.0055 Y43.6702
G01 X30.1736 Y43.8010
G01 X30.3179 Y43.9577
G01 X30.4344 Y44.1361
G01 X30.5200 Y44.3312
G01 X30.5723 Y44.5377
G01 X30.5899 Y44.7500
G01 X30.5723 Y44.9623
G01 X30.5154 Y45.1868
G01 X30.5118 Y45.2041
G01 X30.5097 Y45.2216
G01 X30.5090 Y45.2392
G01 X30.5117 Y45.3171
G01 X30.5142 Y45.3427
G01 X30.5198 Y45.3679
G01 X30.5261 Y45.3867
G01 X30.5341 Y45.4049
G01 X30.5438 Y45.4222
G01 X30.5737 Y45.4705
G01 X30.5879 Y45.4908
G01 X30.6045 Y45.5093
G01 X32.2984 Y47.2033
G01 X32.3492 Y47.2912
G01 X32.3755 Y47.3893
G01 X32.3755 Y49.8683
G01 X32.3764 Y49.8887
G01 X32.3793 Y49.9090
G01 X32.3842 Y49.9289
G01 X32.4039 Y49.9959
G01 X32.4115 Y50.0176
G01 X32.4214 Y50.0384
G01 X32.4335 Y50.0579
G01 X32.4438 Y50.0716
G01 X32.4551 Y50.0844
G01 X32.4883 Y50.1189
G01 X32.4886 Y50.1186
G01 X32.4997 Y50.1298
G01 X32.5200 Y50.1460
G01 X32.6904 Y50.2653
G01 X32.8247 Y50.3996
G01 X32.9336 Y50.5552
G01 X33.0139 Y50.7273
G01 X33.0631 Y50.9108
G01 X33.0796 Y51.1000
G01 X33.0631 Y51.2892
G01 X33.0139 Y51.4727
G01 X32.9336 Y51.6448
G01 X32.8247 Y51.8004
G01 X32.6904 Y51.9347
G01 X32.5348 Y52.0436
G01 X32.3627 Y52.1239
G01 X32.1792 Y52.1731
G01 X31.9900 Y52.1896
G01 X31.8008 Y52.1731
G01 X31.6173 Y52.1239
G01 X31.4452 Y52.0436
G01 X31.2896 Y51.9347
G01 X31.1553 Y51.8004
G01 X31.0464 Y51.6448
G01 X30.9661 Y51.4727
G01 X30.9169 Y51.2892
G01 X30.9004 Y51.1000
G01 X30.9169 Y50.9108
G01 X30.9661 Y50.7273
G01 X31.0464 Y50.5552
G01 X31.1553 Y50.3996
G01 X31.2896 Y50.2653
G01 X31.4600 Y50.1460
G01 X31.4748 Y50.1346
G01 X31.4887 Y50.1219
G01 X31.5046 Y50.1041
G01 X31.5482 Y50.0496
G01 X31.5579 Y50.0365
G01 X31.5665 Y50.0228
G01 X31.5771 Y50.0018
G01 X31.5854 Y49.9797
G01 X31.5912 Y49.9568
G01 X31.6005 Y49.9098
G01 X31.6035 Y49.8892
G01 X31.6045 Y49.8683
G01 X31.6045 Y47.7401
G01 X31.6036 Y47.7197
G01 X31.6007 Y47.6994
G01 X31.5958 Y47.6795
G01 X31.5761 Y47.6125
G01 X31.5695 Y47.5934
G01 X31.5612 Y47.5750
G01 X31.5511 Y47.5574
G01 X31.5373 Y47.5381
G01 X31.5206 Y47.5175
G01 X31.5052 Y47.5004
G01 X30.0556 Y46.0507
G01 X30.0405 Y46.0370
G01 X30.0241 Y46.0247
G01 X30.0066 Y46.0140
G01 X29.9453 Y45.9806
G01 X29.9282 Y45.9722
G01 X29.9104 Y45.9654
G01 X29.8881 Y45.9592
G01 X29.8653 Y45.9555
G01 X29.8422 Y45.9543
G01 X29.8297 Y45.9546
G01 X29.7631 Y45.9585
G01 X29.7437 Y45.9605
G01 X29.7245 Y45.9643
G01 X29.7058 Y45.9698
G01 X29.6166 Y46.0004
G01 X29.4065 Y46.0355
G01 X29.1935 Y46.0355
G01 X28.9834 Y46.0004
G01 X28.7819 Y45.9312
G01 X28.5945 Y45.8298
G01 X28.4264 Y45.6990
G01 X28.2821 Y45.5423
G01 X28.1656 Y45.3639
G01 X28.0800 Y45.1688
G01 X28.0277 Y44.9623
G01 X28.0101 Y44.7500
G00 Z2.0000
G00 X28.0904 Y44.8586
G01 F60.00
G01 Z-0.1000
G01 F120.00
G01 X28.0900 Y44.8586
G01 X28.0852 Y44.7606
G01 X28.0852 Y44.7394
G01 X28.0900 Y44.6414
G01 X28.0921 Y44.6204
G01 X28.1065 Y44.5234
G01 X28.1106 Y44.5027
G01 X28.1345 Y44.4075
G01 X28.1406 Y44.3873
G01 X28.1737 Y44.2949
G01 X28.1817 Y44.2754
G01 X28.2237 Y44.1867
G01 X28.2336 Y44.1681
G01 X28.2841 Y44.0839
G01 X28.2948 Y44.0678
G01 X28.3543 Y43.9875
G01 X28.3680 Y43.9715
G01 X28.3677 Y43.9712
G01 X28.4336 Y43.8985
G01 X28.4485 Y43.8836
G01 X28.5212 Y43.8177
G01 X28.5375 Y43.8043
G01 X28.6163 Y43.7458
G01 X28.6339 Y43.7341
G01 X28.7181 Y43.6836
G01 X28.7367 Y43.6737
G01 X28.8254 Y43.6317
G01 X28.8449 Y43.6237
G01 X28.9373 Y43.5906
G01 X28.9575 Y43.5845
G01 X29.0527 Y43.5606
G01 X29.0707 Y43.5569
G01 X29.1704 Y43.5421
G01 X29.1914 Y43.5404
G01 X29.1914 Y43.5400
G01 X29.2894 Y43.5352
G01 X29.3106 Y43.5352
G01 X29.4086 Y43.5400
G01 X29.4296 Y43.5421
G01 X29.5266 Y43.5565
G01 X29.5473 Y43.5606
G01 X29.6425 Y43.5845
G01 X29.6627 Y43.5906
G01 X29.7551 Y43.6237
G01 X29.7746 Y43.6317
G01 X29.8633 Y43.6737
G01 X29.8819 Y43.6836
G01 X29.9661 Y43.7341
G01 X29.9822 Y43.7448
G01 X30.0625 Y43.8043
G01 X30.0785 Y43.8180
G01 X30.0788 Y43.8177
G01 X30.1515 Y43.8836
G01 X30.1664 Y43.8985
G01 X30.2323 Y43.9712
G01 X30.2457 Y43.9875
G01 X30.3042 Y44.0663
G01 X30.3159 Y44.0839
G01 X30.3664 Y44.1681
G01 X30.3763 Y44.1867
G01 X30.4183 Y44.2754
G01 X30.4263 Y44.2949
G01 X30.4594 Y44.3873
G01 X30.4655 Y44.4075
G01 X30.4894 Y44.5027
G01 X30.4929 Y44.5199
G01 X30.5079 Y44.6204
G01 X30.5096 Y44.6414
G01 X30.5100 Y44.6414
G01 X30.5148 Y44.7394
G01 X30.5148 Y44.7606
G01 X30.5100 Y44.8586
G01 X30.5079 Y44.8796
G01 X30.4935 Y44.9766
G01 X30.4894 Y44.9973
G01 X30.4655 Y45.0925
G01 X30.4592 Y45.1126
G01 X30.4594 Y45.1127
G01 X30.4263 Y45.2051
G01 X30.4183 Y45.2246
G01 X30.3763 Y45.3133
G01 X30.3664 Y45.3319
G01 X30.3518 Y45.3562
G01 X32.2128 Y47.2172
G01 X32.2267 Y47.2321
G01 X32.2401 Y47.2484
G01 X32.2459 Y47.2563
G01 X32.2576 Y47.2739
G01 X32.2627 Y47.2823
G01 X32.2726 Y47.3009
G01 X32.2768 Y47.3098
G01 X32.2849 Y47.3293
G01 X32.2882 Y47.3385
G01 X32.2943 Y47.3587
G01 X32.2967 Y47.3682
G01 X32.3003 Y47.3854
G01 X32.3023 Y47.3986
G01 X32.3040 Y47.4197
G01 X32.3043 Y47.4196
G01 X32.3051 Y47.4400
G01 X32.3051 Y50.1357
G01 X32.3686 Y50.1584
G01 X32.3881 Y50.1665
G01 X32.4591 Y50.2001
G01 X32.4777 Y50.2100
G01 X32.5450 Y50.2504
G01 X32.5611 Y50.2611
G01 X32.6256 Y50.3089
G01 X32.6417 Y50.3226
G01 X32.6419 Y50.3223
G01 X32.7001 Y50.3750
G01 X32.7150 Y50.3899
G01 X32.7677 Y50.4481
G01 X32.7811 Y50.4644
G01 X32.8279 Y50.5274
G01 X32.8396 Y50.5450
G01 X32.8800 Y50.6123
G01 X32.8899 Y50.6309
G01 X32.9235 Y50.7019
G01 X32.9316 Y50.7214
G01 X32.9580 Y50.7953
G01 X32.9641 Y50.8155
G01 X32.9832 Y50.8917
G01 X32.9868 Y50.9089
G01 X32.9989 Y50.9900
G01 X33.0006 Y51.0111
G01 X33.0009 Y51.0110
G01 X33.0048 Y51.0894
G01 X33.0048 Y51.1106
G01 X33.0009 Y51.1890
G01 X32.9989 Y51.2100
G01 X32.9873 Y51.2876
G01 X32.9832 Y51.3083
G01 X32.9641 Y51.3845
G01 X32.9580 Y51.4047
G01 X32.9316 Y51.4786
G01 X32.9235 Y51.4981
G01 X32.8899 Y51.5691
G01 X32.8800 Y51.5877
G01 X32.8396 Y51.6550
G01 X32.8289 Y51.6711
G01 X32.7811 Y51.7356
G01 X32.7674 Y51.7517
G01 X32.7677 Y51.7519
G01 X32.7150 Y51.8101
G01 X32.7001 Y51.8250
G01 X32.6419 Y51.8777
G01 X32.6256 Y51.8911
G01 X32.5626 Y51.9379
G01 X32.5450 Y51.9496
G01 X32.4777 Y51.9900
G01 X32.4591 Y51.9999
G01 X32.3881 Y52.0335
G01 X32.3686 Y52.0416
G01 X32.2947 Y52.0680
G01 X32.2745 Y52.0741
G01 X32.1983 Y52.0932
G01 X32.1802 Y52.0969
G01 X32.1000 Y52.1089
G01 X32.0789 Y52.1106
G01 X32.0790 Y52.1109
G01 X32.0006 Y52.1148
G01 X31.9794 Y52.1148
G01 X31.9010 Y52.1109
G01 X31.8800 Y52.1089
G01 X31.8024 Y52.0973
G01 X31.7817 Y52.0932
G01 X31.7055 Y52.0741
G01 X31.6853 Y52.0680
G01 X31.6114 Y52.0416
G01 X31.5919 Y52.0335
G01 X31.5209 Y51.9999
G01 X31.5023 Y51.9900
G01 X31.4350 Y51.9496
G01 X31.4189 Y51.9389
G01 X31.3544 Y51.8911
G01 X31.3383 Y51.8774
G01 X31.3381 Y51.8777
G01 X31.2799 Y51.8250
G01 X31.2650 Y51.8101
G01 X31.2123 Y51.7519
G01 X31.1989 Y51.7356
G01 X31.1521 Y51.6726
G01 X31.1404 Y51.6550
G01 X31.1000 Y51.5877
G01 X31.0901 Y51.5691
G01 X31.0565 Y51.4981
G01 X31.0484 Y51.4786
G01 X31.0220 Y51.4047
G01 X31.0159 Y51.3845
G01 X30.9968 Y51.3083
G01 X30.9932 Y51.2911
G01 X30.9811 Y51.2100
G01 X30.9794 Y51.1889
G01 X30.9791 Y51.1890
G01 X30.9752 Y51.1106
G01 X30.9752 Y51.0894
G01 X30.9791 Y51.0110
G01 X30.9811 Y50.9900
G01 X30.9927 Y50.9124
G01 X30.9968 Y50.8917
G01 X31.0159 Y50.8155
G01 X31.0222 Y50.7954
G01 X31.0220 Y50.7953
G01 X31.0484 Y50.7214
G01 X31.0565 Y50.7019
G01 X31.0901 Y50.6309
G01 X31.1000 Y50.6123
G01 X31.1404 Y50.5450
G01 X31.1511 Y50.5289
G01 X31.1989 Y50.4644
G01 X31.2126 Y50.4483
G01 X31.2123 Y50.4481
G01 X31.2650 Y50.3899
G01 X31.2799 Y50.3750
G01 X31.3381 Y50.3223
G01 X31.3544 Y50.3089
G01 X31.4174 Y50.2621
G01 X31.4350 Y50.2504
G01 X31.5023 Y50.2100
G01 X31.5209 Y50.2001
G01 X31.5919 Y50.1665
G01 X31.6114 Y50.1584
G01 X31.6749 Y50.1357
G01 X31.6749 Y47.5705
G01 X29.9062 Y45.8018
G01 X29.8819 Y45.8164
G01 X29.8633 Y45.8263
G01 X29.7746 Y45.8683
G01 X29.7551 Y45.8763
G01 X29.6627 Y45.9094
G01 X29.6425 Y45.9155
G01 X29.5473 Y45.9394
G01 X29.5293 Y45.9431
G01 X29.4296 Y45.9579
G01 X29.4086 Y45.9596
G01 X29.4086 Y45.9600
G01 X29.3106 Y45.9648
G01 X29.2894 Y45.9648
G01 X29.1914 Y45.9600
G01 X29.1704 Y45.9579
G01 X29.0734 Y45.9435
G01 X29.0527 Y45.9394
G01 X28.9575 Y45.9155
G01 X28.9373 Y45.9094
G01 X28.8449 Y45.8763
G01 X28.8254 Y45.8683
G01 X28.7367 Y45.8263
G01 X28.7181 Y45.8164
G01 X28.6339 Y45.7659
G01 X28.6178 Y45.7552
G01 X28.5375 Y45.6957
G01 X28.5215 Y45.6820
G01 X28.5212 Y45.6823
G01 X28.4485 Y45.6164
G01 X28.4336 Y45.6015
G01 X28.3677 Y45.5288
G01 X28.3543 Y45.5125
G01 X28.2958 Y45.4337
G01 X28.2841 Y45.4161
G01 X28.2336 Y45.3319
G01 X28.2237 Y45.3133
G01 X28.1817 Y45.2246
G01 X28.1737 Y45.2051
G01 X28.1406 Y45.1127
G01 X28.1345 Y45.0925
G01 X28.1106 Y44.9973
G01 X28.1071 Y44.9801
G01 X28.0921 Y44.8796
G01 X28.0904 Y44.8586
G00 Z2.0000
G00 X28.2282 Y44.8518
G01 F60.00
G01 Z-0.1000
G01 F120.00
G01 X28.2233 Y44.7538
G01 X28.2233 Y44.7462
G01 X28.2281 Y44.6482
G01 X28.2288 Y44.6407
G01 X28.2432 Y44.5436
G01 X28.2447 Y44.5362
G01 X28.2686 Y44.4411
G01 X28.2707 Y44.4338
G01 X28.3038 Y44.3414
G01 X28.3067 Y44.3345
G01 X28.3487 Y44.2458
G01 X28.3522 Y44.2391
G01 X28.4027 Y44.1549
G01 X28.4068 Y44.1487
G01 X28.4653 Y44.0699
G01 X28.4701 Y44.0640
G01 X28.5360 Y43.9913
G01 X28.5413 Y43.9860
G01 X28.6140 Y43.9201
G01 X28.6199 Y43.9153
G01 X28.6987 Y43.8568
G01 X28.7049 Y43.8527
G01 X28.7891 Y43.8022
G01 X28.7958 Y43.7987
G01 X28.8845 Y43.7567
G01 X28.8914 Y43.7538
G01 X28.9838 Y43.7207
G01 X28.9911 Y43.7186
G01 X29.0862 Y43.6947
G01 X29.0927 Y43.6934
G01 X29.1907 Y43.6788
G01 X29.1982 Y43.6781
G01 X29.2962 Y43.6733
G01 X29.3038 Y43.6733
G01 X29.4018 Y43.6781
G01 X29.4093 Y43.6788
G01 X29.5064 Y43.6932
G01 X29.5138 Y43.6947
G01 X29.6089 Y43.7186
G01 X29.6162 Y43.7207
G01 X29.7086 Y43.7538
G01 X29.7155 Y43.7567
G01 X29.8042 Y43.7987
G01 X29.8109 Y43.8022
G01 X29.8951 Y43.8527
G01 X29.9013 Y43.8568
G01 X29.9801 Y43.9153
G01 X29.9860 Y43.9201
G01 X30.0587 Y43.9860
G01 X30.0640 Y43.9913
G01 X30.1299 Y44.0640
G01 X30.1347 Y44.0699
G01 X30.1932 Y44.1487
G01 X30.1973 Y44.1549
G01 X30.2478 Y44.2391
G01 X30.2513 Y44.2458
G01 X30.2933 Y44.3345
G01 X30.2962 Y44.3414
G01 X30.3293 Y44.4338
G01 X30.3314 Y44.4411
G01 X30.3566 Y44.5424
G01 X30.3712 Y44.6407
G01 X30.3719 Y44.6482
G01 X30.3767 Y44.7462
G01 X30.3767 Y44.7538
G01 X30.3719 Y44.8518
G01 X30.3712 Y44.8593
G01 X30.3568 Y44.9564
G01 X30.3553 Y44.9638
G01 X30.3314 Y45.0589
G01 X30.3293 Y45.0662
G01 X30.2962 Y45.1586
G01 X30.2933 Y45.1655
G01 X30.2513 Y45.2542
G01 X30.2478 Y45.2609
G01 X30.1973 Y45.3451
G01 X30.1935 Y45.3508
G01 X30.1754 Y45.3753
G01 X32.1151 Y47.3149
G01 X32.1242 Y47.3250
G01 X32.1290 Y47.3308
G01 X32.1391 Y47.3449
G01 X32.1441 Y47.3534
G01 X32.1519 Y47.3689
G01 X32.1581 Y47.3851
G01 X32.1602 Y47.3923
G01 X32.1639 Y47.4080
G01 X32.1655 Y47.4189
G01 X32.1663 Y47.4264
G01 X32.1669 Y47.4400
G01 X32.1669 Y50.2414
G01 X32.2409 Y50.2599
G01 X32.2481 Y50.2621
G01 X32.3220 Y50.2886
G01 X32.3290 Y50.2915
G01 X32.4000 Y50.3250
G01 X32.4066 Y50.3286
G01 X32.4739 Y50.3690
G01 X32.4797 Y50.3728
G01 X32.5433 Y50.4199
G01 X32.5491 Y50.4247
G01 X32.6073 Y50.4774
G01 X32.6126 Y50.4827
G01 X32.6653 Y50.5409
G01 X32.6701 Y50.5467
G01 X32.7169 Y50.6098
G01 X32.7210 Y50.6161
G01 X32.7614 Y50.6834
G01 X32.7650 Y50.6900
G01 X32.7985 Y50.7610
G01 X32.8014 Y50.7680
G01 X32.8279 Y50.8419
G01 X32.8301 Y50.8491
G01 X32.8504 Y50.9314
G01 X32.8621 Y51.0103
G01 X32.8629 Y51.0178
G01 X32.8667 Y51.0962
G01 X32.8667 Y51.1038
G01 X32.8629 Y51.1822
G01 X32.8621 Y51.1897
G01 X32.8506 Y51.2673
G01 X32.8491 Y51.2747
G01 X32.8301 Y51.3509
G01 X32.8279 Y51.3581
G01 X32.8014 Y51.4320
G01 X32.7985 Y51.4390
G01 X32.7650 Y51.5100
G01 X32.7614 Y51.5166
G01 X32.7210 Y51.5839
G01 X32.7172 Y51.5897
G01 X32.6701 Y51.6533
G01 X32.6653 Y51.6591
G01 X32.6126 Y51.7173
G01 X32.6073 Y51.7226
G01 X32.5491 Y51.7753
G01 X32.5433 Y51.7801
G01 X32.4802 Y51.8269
G01 X32.4739 Y51.8310
G01 X32.4066 Y51.8714
G01 X32.4000 Y51.8750
G01 X32.3290 Y51.9085
G01 X32.3220 Y51.9114
G01 X32.2481 Y51.9379
G01 X32.2409 Y51.9401
G01 X32.1647 Y51.9591
G01 X32.1583 Y51.9605
G01 X32.0797 Y51.9721
G01 X32.0722 Y51.9729
G01 X31.9938 Y51.9767
G01 X31.9862 Y51.9767
G01 X31.9078 Y51.9729
G01 X31.9003 Y51.9721
G01 X31.8227 Y51.9606
G01 X31.8153 Y51.9591
G01 X31.7391 Y51.9401
G01 X31.7319 Y51.9379
G01 X31.6580 Y51.9114
G01 X31.6510 Y51.9085
G01 X31.5800 Y51.8750
G01 X31.5734 Y51.8714
G01 X31.5061 Y51.8310
G01 X31.5003 Y51.8272
G01 X31.4367 Y51.7801
G01 X31.4309 Y51.7753
G01 X31.3727 Y51.7226
G01 X31.3674 Y51.7173
G01 X31.3147 Y51.6591
G01 X31.3099 Y51.6533
G01 X31.2631 Y51.5902
G01 X31.2590 Y51.5839
G01 X31.2186 Y51.5166
G01 X31.2150 Y51.5100
G01 X31.1815 Y51.4390
G01 X31.1786 Y51.4320
G01 X31.1521 Y51.3581
G01 X31.1499 Y51.3509
G01 X31.1309 Y51.2747
G01 X31.1294 Y51.2673
G01 X31.1179 Y51.1897
G01 X31.1171 Y51.1822
G01 X31.1133 Y51.1038
G01 X31.1133 Y51.0962
G01 X31.1171 Y51.0178
G01 X31.1179 Y51.0103
G01 X31.1294 Y50.9327
G01 X31.1309 Y50.9253
G01 X31.1499 Y50.8491
G01 X31.1521 Y50.8419
G01 X31.1786 Y50.7680
G01 X31.1815 Y50.7610
G01 X31.2150 Y50.6900
G01 X31.2186 Y50.6834
G01 X31.2590 Y50.6161
G01 X31.2628 Y50.6103
G01 X31.3099 Y50.5467
G01 X31.3147 Y50.5409
G01 X31.3674 Y50.4827
G01 X31.3727 Y50.4774
G01 X31.4309 Y50.4247
G01 X31.4367 Y50.4199
G01 X31.4998 Y50.3731
G01 X31.5061 Y50.3690
G01 X31.5734 Y50.3286
G01 X31.5800 Y50.3250
G01 X31.6510 Y50.2915
G01 X31.6580 Y50.2886
G01 X31.7319 Y50.2621
G01 X31.7391 Y50.2599
G01 X31.8131 Y50.2414
G01 X31.8131 Y47.5133
G01 X29.9253 Y45.6254
G01 X29.9013 Y45.6432
G01 X29.8951 Y45.6473
G01 X29.8109 Y45.6978
G01 X29.8042 Y45.7013
G01 X29.7155 Y45.7433
G01 X29.7086 Y45.7462
G01 X29.6162 Y45.7793
G01 X29.6089 Y45.7814
G01 X29.5138 Y45.8053
G01 X29.5073 Y45.8066
G01 X29.4093 Y45.8212
G01 X29.4018 Y45.8219
G01 X29.3038 Y45.8267
G01 X29.2962 Y45.8267
G01 X29.1982 Y45.8219
G01 X29.1907 Y45.8212
G01 X29.0936 Y45.8068
G01 X29.0862 Y45.8053
G01 X28.9911 Y45.7814
G01 X28.9838 Y45.7793
G01 X28.8914 Y45.7462
G01 X28.8845 Y45.7433
G01 X28.7958 Y45.7013
G01 X28.7891 Y45.6978
G01 X28.7049 Y45.6473
G01 X28.6987 Y45.6432
G01 X28.6199 Y45.5847
G01 X28.6140 Y45.5799
G01 X28.5413 Y45.5140
G01 X28.5360 Y45.5087
G01 X28.4701 Y45.4360
G01 X28.4653 Y45.4301
G01 X28.4068 Y45.3513
G01 X28.4027 Y45.3451
G01 X28.3522 Y45.2609
G01 X28.3487 Y45.2542
G01 X28.3067 Y45.1655
G01 X28.3038 Y45.1586
G01 X28.2707 Y45.0662
G01 X28.2686 Y45.0589
G01 X28.2434 Y44.9576
G01 X28.2288 Y44.8593
G01 X28.2282 Y44.8518
G00 Z2.0000
G00 X27.8714 Y44.7500
G01 F60.00
G01 Z-0.1000
G01 F120.00
G01 X27.8909 Y44.5149
G01 X27.9488 Y44.2861
G01 X28.0436 Y44.0701
G01 X28.1726 Y43.8726
G01 X28.3324 Y43.6990
G01 X28.5186 Y43.5540
G01 X28.7261 Y43.4417
G01 X28.9493 Y43.3651
G01 X29.1820 Y43.3263
G01 X29.4180 Y43.3263
G01 X29.6507 Y43.3651
G01 X29.8739 Y43.4417
G01 X30.0814 Y43.5540
G01 X30.2676 Y43.6990
G01 X30.4274 Y43.8725
G01 X30.5564 Y44.0701
G01 X30.6512 Y44.2861
G01 X30.7091 Y44.5149
G01 X30.7286 Y44.7500
G01 X30.7091 Y44.9851
G01 X30.6495 Y45.2205
G01 X30.6482 Y45.2266
G01 X30.6474 Y45.2329
G01 X30.6472 Y45.2420
G01 X30.6499 Y45.3119
G01 X30.6508 Y45.3210
G01 X30.6528 Y45.3300
G01 X30.6550 Y45.3367
G01 X30.6579 Y45.3432
G01 X30.6613 Y45.3494
G01 X30.6912 Y45.3977
G01 X30.6963 Y45.4050
G01 X30.7022 Y45.4116
G01 X32.4091 Y47.1184
G01 X32.4780 Y47.2379
G01 X32.5137 Y47.3711
G01 X32.5137 Y49.8683
G01 X32.5140 Y49.8756
G01 X32.5151 Y49.8828
G01 X32.5168 Y49.8899
G01 X32.5365 Y49.9570
G01 X32.5392 Y49.9647
G01 X32.5428 Y49.9721
G01 X32.5471 Y49.9791
G01 X32.5548 Y49.9886
G01 X32.5880 Y50.0231
G01 X32.5920 Y50.0270
G01 X32.5993 Y50.0328
G01 X32.7796 Y50.1590
G01 X32.9310 Y50.3104
G01 X33.0538 Y50.4858
G01 X33.1443 Y50.6799
G01 X33.1997 Y50.8867
G01 X33.2184 Y51.1000
G01 X33.1997 Y51.3133
G01 X33.1443 Y51.5201
G01 X33.0538 Y51.7142
G01 X32.9310 Y51.8896
G01 X32.7796 Y52.0410
G01 X32.6042 Y52.1638
G01 X32.4101 Y52.2543
G01 X32.2033 Y52.3097
G01 X31.9900 Y52.3284
G01 X31.7767 Y52.3097
G01 X31.5699 Y52.2543
G01 X31.3758 Y52.1638
G01 X31.2004 Y52.0410
G01 X31.0490 Y51.8896
G01 X30.9262 Y51.7142
G01 X30.8357 Y51.5201
G01 X30.7803 Y51.3133
G01 X30.7616 Y51.1000
G01 X30.7803 Y50.8867
G01 X30.8357 Y50.6799
G01 X30.9262 Y50.4858
G01 X31.0490 Y50.3104
G01 X31.2004 Y50.1590
G01 X31.3807 Y50.0328
G01 X31.3860 Y50.0287
G01 X31.3909 Y50.0242
G01 X31.3966 Y50.0178
G01 X31.4402 Y49.9633
G01 X31.4468 Y49.9537
G01 X31.4506 Y49.9462
G01 X31.4535 Y49.9383
G01 X31.4556 Y49.9301
G01 X31.4649 Y49.8831
G01 X31.4659 Y49.8758
G01 X31.4663 Y49.8683
G01 X31.4663 Y47.7401
G01 X31.4660 Y47.7328
G01 X31.4649 Y47.7256
G01 X31.4632 Y47.7185
G01 X31.4435 Y47.6514
G01 X31.4411 Y47.6446
G01 X31.4382 Y47.6380
G01 X31.4346 Y47.6318
G01 X31.4296 Y47.6249
G01 X31.4130 Y47.6042
G01 X31.4075 Y47.5981
G01 X29.9579 Y46.1485
G01 X29.9524 Y46.1436
G01 X29.9466 Y46.1392
G01 X29.9404 Y46.1354
G01 X29.8790 Y46.1019
G01 X29.8729 Y46.0989
G01 X29.8666 Y46.0965
G01 X29.8586 Y46.0943
G01 X29.8505 Y46.0929
G01 X29.8422 Y46.0925
G01 X29.7711 Y46.0965
G01 X29.7642 Y46.0972
G01 X29.7574 Y46.0986
G01 X29.7507 Y46.1005
G01 X29.6507 Y46.1349
G01 X29.4180 Y46.1737
G01 X29.1820 Y46.1737
G01 X28.9493 Y46.1349
G01 X28.7262 Y46.0583
G01 X28.5186 Y45.9460
G01 X28.3325 Y45.8010
G01 X28.1726 Y45.6274
G01 X28.0436 Y45.4299
G01 X27.9488 Y45.2139
G01 X27.8909 Y44.9851
G01 X27.8714 Y44.7500
G00 Z2.0000
G00 X34.3714 Y44.7500
G01 F60.00
G01 Z-0.1000
G01 F120.00
G01 X34.3909 Y44.5149
G01 X34.4488 Y44.2861
G01 X34.5436 Y44.0701
G01 X34.6726 Y43.8726
G01 X34.8324 Y43.6990
G01 X35.0186 Y43.5540
G01 X35.2261 Y43.4417
G01 X35.4493 Y43.3651
G01 X35.6820 Y43.3263
G01 X35.9180 Y43.3263
G01 X36.1507 Y43.3651
G01 X36.3739 Y43.4417
G01 X36.5814 Y43.5540
G01 X36.7676 Y43.6990
G01 X36.9274 Y43.8725
G01 X37.0564 Y44.0701
G01 X37.1512 Y44.2861
G01 X37.2091 Y44.5149
G01 X37.2286 Y44.7500
G01 X37.2091 Y44.9851
G01 X37.1512 Y45.2139
G01 X37.0564 Y45.4299
G01 X36.9274 Y45.6274
G01 X36.7676 Y45.8010
G01 X36.5814 Y45.9460
G01 X36.3739 Y46.0583
G01 X36.1507 Y46.1349
G01 X35.9180 Y46.1737
G01 X35.6820 Y46.1737
G01 X35.4493 Y46.1349
G01 X35.2262 Y46.0583
G01 X35.0186 Y45.9460
G01 X34.8325 Y45.8010
G01 X34.6726 Y45.6274
G01 X34.5436 Y45.4299
G01 X34.4488 Y45.2139
G01 X34.3909 Y44.9851
G01 X34.3714 Y44.7500
G00 Z2.0000
G00 X34.5101 Y44.7500
G01 F60.00
G01 Z-0.1000
G01 F120.00
G01 X34.5277 Y44.5377
G01 X34.5800 Y44.3312
G01 X34.6656 Y44.1361
G01 X34.7821 Y43.9578
G01 X34.9264 Y43.8010
G01 X35.0945 Y43.6702
G01 X35.2819 Y43.5688
G01 X35.4834 Y43.4996
G01 X35.6935 Y43.4645
G01 X35.9065 Y43.4645
G01 X36.1166 Y43.4996
G01 X36.3181 Y43.5688
G01 X36.5055 Y43.6702
G01 X36.6736 Y43.8010
G01 X36.8179 Y43.9577
G01 X36.9344 Y44.1361
G01 X37.0200 Y44.3312
G01 X37.0723 Y44.5377
G01 X37.0899 Y44.7500
G01 X37.0723 Y44.9623
G01 X37.0200 Y45.1688
G01 X36.9344 Y45.3639
G01 X36.8179 Y45.5422
G01 X36.6736 Y45.6990
G01 X36.5055 Y45.8298
G01 X36.3181 Y45.9312
G01 X36.1166 Y46.0004
G01 X35.9065 Y46.0355
G01 X35.6935 Y46.0355
G01 X35.4834 Y46.0004
G01 X35.2819 Y45.9312
G01 X35.0945 Y45.8298
G01 X34.9264 Y45.6990
G01 X34.7821 Y45.5423
G01 X34.6656 Y45.3639
G01 X34.5800 Y45.1688
G01 X34.5277 Y44.9623
G01 X34.5101 Y44.7500
G00 Z2.0000
G00 X34.5904 Y44.8586
G01 F60.00
G01 Z-0.1000
G01 F120.00
G01 X34.5900 Y44.8586
G01 X34.5852 Y44.7606
G01 X34.5852 Y44.7394
G01 X34.5900 Y44.6414
G01 X34.5921 Y44.6204
G01 X34.6065 Y44.5234
G01 X34.6106 Y44.5027
G01 X34.6345 Y44.4075
G01 X34.6406 Y44.3873
G01 X34.6737 Y44.2949
G01 X34.6817 Y44.2754
G01 X34.7237 Y44.1867
G01 X34.7336 Y44.1681
G01 X34.7841 Y44.0839
G01 X34.7948 Y44.0678
G01 X34.8543 Y43.9875
G01 X34.8680 Y43.9715
G01 X34.8677 Y43.9712
G01 X34.9336 Y43.8985
G01 X34.9485 Y43.8836
G01 X35.0212 Y43.8177
G01 X35.0375 Y43.8043
G01 X35.1163 Y43.7458
G01 X35.1339 Y43.7341
G01 X35.2181 Y43.6836
G01 X35.2367 Y43.6737
G01 X35.3254 Y43.6317
G01 X35.3449 Y43.6237
G01 X35.4373 Y43.5906
G01 X35.4575 Y43.5845
G01 X35.5527 Y43.5606
G01 X35.5707 Y43.5569
G01 X35.6704 Y43.5421
G01 X35.6914 Y43.5404
G01 X35.6914 Y43.5400
G01 X35.7894 Y43.5352
G01 X35.8106 Y43.5352
G01 X35.9086 Y43.5400
G01 X35.9296 Y43.5421
G01 X36.0266 Y43.5565
G01 X36.0473 Y43.5606
G01 X36.1425 Y43.5845
G01 X36.1627 Y43.5906
G01 X36.2551 Y43.6237
G01 X36.2746 Y43.6317
G01 X36.3633 Y43.6737
G01 X36.3819 Y43.6836
G01 X36.4661 Y43.7341
G01 X36.4822 Y43.7448
G01 X36.5625 Y43.8043
G01 X36.5785 Y43.8180
G01 X36.5788 Y43.8177
G01 X36.6515 Y43.8836
G01 X36.6664 Y43.8985
G01 X36.7323 Y43.9712
G01 X36.7457 Y43.9875
G01 X36.8042 Y44.0663
G01 X36.8159 Y44.0839
G01 X36.8664 Y44.1681
G01 X36.8763 Y44.1867
G01 X36.9183 Y44.2754
G01 X36.9263 Y44.2949
G01 X36.9594 Y44.3873
G01 X36.9655 Y44.4075
G01 X36.9894 Y44.5027
G01 X36.9929 Y44.5199
G01 X37.0079 Y44.6204
G01 X37.0096 Y44.6414
G01 X37.0100 Y44.6414
G01 X37.0148 Y44.7394
G01 X37.0148 Y44.7606
G01 X37.0100 Y44.8586
G01 X37.0079 Y44.8796
G01 X36.9935 Y44.9766
G01 X36.9894 Y44.9973
G01 X36.9655 Y45.0925
G01 X36.9592 Y45.1126
G01 X36.9594 Y45.1127
G01 X36.9263 Y45.2051
G01 X36.9183 Y45.2246
G01 X36.8763 Y45.3133
G01 X36.8664 Y45.3319
G01 X36.8159 Y45.4161
G01 X36.8052 Y45.4322
G01 X36.7457 Y45.5125
G01 X36.7320 Y45.5285
G01 X36.7323 Y45.5288
G01 X36.6664 Y45.6015
G01 X36.6515 Y45.6164
G01 X36.5788 Y45.6823
G01 X36.5625 Y45.6957
G01 X36.4837 Y45.7542
G01 X36.4661 Y45.7659
G01 X36.3819 Y45.8164
G01 X36.3633 Y45.8263
G01 X36.2746 Y45.8683
G01 X36.2551 Y45.8763
G01 X36.1627 Y45.9094
G01 X36.1425 Y45.9155
G01 X36.0473 Y45.9394
G01 X36.0293 Y45.9431
G01 X35.9296 Y45.9579
G01 X35.9086 Y45.9596
G01 X35.9086 Y45.9600
G01 X35.8106 Y45.9648
G01 X35.7894 Y45.9648
G01 X35.6914 Y45.9600
G01 X35.6704 Y45.9579
G01 X35.5734 Y45.9435
G01 X35.5527 Y45.9394
G01 X35.4575 Y45.9155
G01 X35.4373 Y45.9094
G01 X35.3449 Y45.8763
G01 X35.3254 Y45.8683
G01 X35.2367 Y45.8263
G01 X35.2181 Y45.8164
G01 X35.1339 Y45.7659
G01 X35.1178 Y45.7552
G01 X35.0375 Y45.6957
G01 X35.0215 Y45.6820
G01 X35.0212 Y45.6823
G01 X34.9485 Y45.6164
G01 X34.9336 Y45.6015
G01 X34.8677 Y45.5288
G01 X34.8543 Y45.5125
G01 X34.7958 Y45.4337
G01 X34.7841 Y45.4161
G01 X34.7336 Y45.3319
G01 X34.7237 Y45.3133
G01 X34.6817 Y45.2246
G01 X34.6737 Y45.2051
G01 X34.6406 Y45.1127
G01 X34.6345 Y45.0925
G01 X34.6106 Y44.9973
G01 X34.6071 Y44.9801
G01 X34.5921 Y44.8796
G01 X34.5904 Y44.8586
G00 Z2.0000
G00 X34.7282 Y44.8518
G01 F60.00
G01 Z-0.1000
G01 F120.00
G01 X34.7233 Y44.7538
G01 X34.7233 Y44.7462
G01 X34.7281 Y44.6482
G01 X34.7288 Y44.6407
G01 X34.7432 Y44.5436
G01 X34.7447 Y44.5362
G01 X34.7686 Y44.4411
G01 X34.7707 Y44.4338
G01 X34.8038 Y44.3414
G01 X34.8067 Y44.3345
G01 X34.8487 Y44.2458
G01 X34.8522 Y44.2391
G01 X34.9027 Y44.1549
G01 X34.9065 Y44.1492
G01 X34.9653 Y44.0699
G01 X34.9701 Y44.0640
G01 X35.0360 Y43.9913
G01 X35.0413 Y43.9860
G01 X35.1140 Y43.9201
G01 X35.1199 Y43.9153
G01 X35.1987 Y43.8568
G01 X35.2049 Y43.8527
G01 X35.2891 Y43.8022
G01 X35.2958 Y43.7987
G01 X35.3845 Y43.7567
G01 X35.3914 Y43.7538
G01 X35.4838 Y43.7207
G01 X35.4911 Y43.7186
G01 X35.5862 Y43.6947
G01 X35.5927 Y43.6934
G01 X35.6907 Y43.6788
G01 X35.6982 Y43.6781
G01 X35.7962 Y43.6733
G01 X35.8038 Y43.6733
G01 X35.9018 Y43.6781
G01 X35.9093 Y43.6788
G01 X36.0064 Y43.6932
G01 X36.0138 Y43.6947
G01 X36.1089 Y43.7186
G01 X36.1162 Y43.7207
G01 X36.2086 Y43.7538
G01 X36.2155 Y43.7567
G01 X36.3042 Y43.7987
G01 X36.3109 Y43.8022
G01 X36.3951 Y43.8527
G01 X36.4008 Y43.8565
G01 X36.4801 Y43.9153
G01 X36.4860 Y43.9201
G01 X36.5587 Y43.9860
G01 X36.5640 Y43.9913
G01 X36.6299 Y44.0640
G01 X36.6347 Y44.0699
G01 X36.6932 Y44.1487
G01 X36.6973 Y44.1549
G01 X36.7478 Y44.2391
G01 X36.7513 Y44.2458
G01 X36.7933 Y44.3345
G01 X36.7962 Y44.3414
G01 X36.8293 Y44.4338
G01 X36.8314 Y44.4411
G01 X36.8566 Y44.5424
G01 X36.8712 Y44.6407
G01 X36.8719 Y44.6482
G01 X36.8767 Y44.7462
G01 X36.8767 Y44.7538
G01 X36.8719 Y44.8518
G01 X36.8712 Y44.8593
G01 X36.8568 Y44.9564
G01 X36.8553 Y44.9638
G01 X36.8314 Y45.0589
G01 X36.8293 Y45.0662
G01 X36.7962 Y45.1586
G01 X36.7933 Y45.1655
G01 X36.7513 Y45.2542
G01 X36.7478 Y45.2609
G01 X36.6973 Y45.3451
G01 X36.6935 Y45.3508
G01 X36.6347 Y45.4301
G01 X36.6299 Y45.4360
G01 X36.5640 Y45.5087
G01 X36.5587 Y45.5140
G01 X36.4860 Y45.5799
G01 X36.4801 Y45.5847
G01 X36.4013 Y45.6432
G01 X36.3951 Y45.6473
G01 X36.3109 Y45.6978
G01 X36.3042 Y45.7013
G01 X36.2155 Y45.7433
G01 X36.2086 Y45.7462
G01 X36.1162 Y45.7793
G01 X36.1089 Y45.7814
G01 X36.0138 Y45.8053
G01 X36.0073 Y45.8066
G01 X35.9093 Y45.8212
G01 X35.9018 Y45.8219
G01 X35.8038 Y45.8267
G01 X35.7962 Y45.8267
G01 X35.6982 Y45.8219
G01 X35.6907 Y45.8212
G01 X35.5936 Y45.8068
G01 X35.5862 Y45.8053
G01 X35.4911 Y45.7814
G01 X35.4838 Y45.7793
G01 X35.3914 Y45.7462
G01 X35.3845 Y45.7433
G01 X35.2958 Y45.7013
G01 X35.2891 Y45.6978
G01 X35.2049 Y45.6473
G01 X35.1992 Y45.6435
G01 X35.1199 Y45.5847
G01 X35.1140 Y45.5799
G01 X35.0413 Y45.5140
G01 X35.0360 Y45.5087
G01 X34.9701 Y45.4360
G01 X34.9653 Y45.4301
G01 X34.9068 Y45.3513
G01 X34.9027 Y45.3451
G01 X34.8522 Y45.2609
G01 X34.8487 Y45.2542
G01 X34.8067 Y45.1655
G01 X34.8038 Y45.1586
G01 X34.7707 Y45.0662
G01 X34.7686 Y45.0589
G01 X34.7434 Y44.9576
G01 X34.7288 Y44.8593
G01 X34.7282 Y44.8518
G00 Z2.0000
G00 X33.5578 Y30.8720
G01 F60.00
G01 Z-0.1000
G01 F120.00
G01 X33.5533 Y30.7838
G01 X33.5533 Y30.7762
G01 X33.5576 Y30.6880
G01 X33.5584 Y30.6805
G01 X33.5715 Y30.5922
G01 X33.5728 Y30.5858
G01 X33.5943 Y30.5001
G01 X33.5964 Y30.4929
G01 X33.6262 Y30.4097
G01 X33.6291 Y30.4027
G01 X33.6668 Y30.3229
G01 X33.6704 Y30.3163
G01 X33.7158 Y30.2405
G01 X33.7196 Y30.2347
G01 X33.7726 Y30.1633
G01 X33.7774 Y30.1575
G01 X33.8367 Y30.0920
G01 X33.8420 Y30.0867
G01 X33.9075 Y30.0274
G01 X33.9133 Y30.0226
G01 X33.9842 Y29.9700
G01 X33.9905 Y29.9658
G01 X34.0663 Y29.9204
G01 X34.0729 Y29.9168
G01 X34.1527 Y29.8791
G01 X34.1597 Y29.8762
G01 X34.2429 Y29.8464
G01 X34.2501 Y29.8443
G01 X34.3358 Y29.8228
G01 X34.3431 Y29.8213
G01 X34.4305 Y29.8084
G01 X34.4380 Y29.8076
G01 X34.5262 Y29.8033
G01 X34.5338 Y29.8033
G01 X34.6220 Y29.8076
G01 X34.6295 Y29.8084
G01 X34.7169 Y29.8213
G01 X34.7242 Y29.8228
G01 X34.8099 Y29.8443
G01 X34.8171 Y29.8464
G01 X34.9003 Y29.8762
G01 X34.9073 Y29.8791
G01 X34.9871 Y29.9168
G01 X34.9937 Y29.9204
G01 X35.0695 Y29.9658
G01 X35.0753 Y29.9696
G01 X35.1467 Y30.0226
G01 X35.1525 Y30.0274
G01 X35.2180 Y30.0867
G01 X35.2233 Y30.0920
G01 X35.2826 Y30.1575
G01 X35.2874 Y30.1633
G01 X35.3400 Y30.2342
G01 X35.3442 Y30.2405
G01 X35.3896 Y30.3163
G01 X35.3932 Y30.3229
G01 X35.4309 Y30.4027
G01 X35.4338 Y30.4097
G01 X35.4636 Y30.4929
G01 X35.4657 Y30.5001
G01 X35.4872 Y30.5858
G01 X35.4887 Y30.5931
G01 X35.5016 Y30.6805
G01 X35.5024 Y30.6880
G01 X35.5067 Y30.7762
G01 X35.5067 Y30.7838
G01 X35.5024 Y30.8720
G01 X35.5016 Y30.8795
G01 X35.4887 Y30.9669
G01 X35.4872 Y30.9742
G01 X35.4657 Y31.0599
G01 X35.4636 Y31.0671
G01 X35.4338 Y31.1503
G01 X35.4309 Y31.1573
G01 X35.3932 Y31.2371
G01 X35.3896 Y31.2437
G01 X35.3442 Y31.3195
G01 X35.3404 Y31.3253
G01 X35.2874 Y31.3967
G01 X35.2826 Y31.4025
G01 X35.2233 Y31.4680
G01 X35.2180 Y31.4733
G01 X35.1525 Y31.5326
G01 X35.1467 Y31.5374
G01 X35.0758 Y31.5900
G01 X35.0695 Y31.5942
G01 X34.9937 Y31.6396
G01 X34.9871 Y31.6432
G01 X34.9073 Y31.6809
G01 X34.9003 Y31.6838
G01 X34.8171 Y31.7136
G01 X34.8099 Y31.7157
G01 X34.7242 Y31.7372
G01 X34.7069 Y31.7402
G01 X34.7069 Y38.9067
G01 X35.1747 Y39.3746
G01 X35.1987 Y39.3568
G01 X35.2049 Y39.3527
G01 X35.2891 Y39.3022
G01 X35.2958 Y39.2987
G01 X35.3845 Y39.2567
G01 X35.3914 Y39.2538
G01 X35.4838 Y39.2207
G01 X35.4911 Y39.2186
G01 X35.5862 Y39.1947
G01 X35.5936 Y39.1932
G01 X35.6907 Y39.1788
G01 X35.6982 Y39.1781
G01 X35.7962 Y39.1733
G01 X35.8038 Y39.1733
G01 X35.9018 Y39.1781
G01 X35.9093 Y39.1788
G01 X36.0064 Y39.1932
G01 X36.0138 Y39.1947
G01 X36.1089 Y39.2186
G01 X36.1162 Y39.2207
G01 X36.2086 Y39.2538
G01 X36.2155 Y39.2567
G01 X36.3042 Y39.2987
G01 X36.3109 Y39.3022
G01 X36.3951 Y39.3527
G01 X36.4013 Y39.3568
G01 X36.4801 Y39.4153
G01 X36.4860 Y39.4201
G01 X36.5587 Y39.4860
G01 X36.5640 Y39.4913
G01 X36.6299 Y39.5640
G01 X36.6347 Y39.5699
G01 X36.6932 Y39.6487
G01 X36.6973 Y39.6549
G01 X36.7478 Y39.7391
G01 X36.7513 Y39.7458
G01 X36.7933 Y39.8345
G01 X36.7962 Y39.8414
G01 X36.8293 Y39.9338
G01 X36.8314 Y39.9411
G01 X36.8553 Y40.0362
G01 X36.8566 Y40.0427
G01 X36.8712 Y40.1407
G01 X36.8719 Y40.1482
G01 X36.8767 Y40.2462
G01 X36.8767 Y40.2538
G01 X36.8719 Y40.3518
G01 X36.8712 Y40.3593
G01 X36.8568 Y40.4564
G01 X36.8553 Y40.4638
G01 X36.8314 Y40.5589
G01 X36.8293 Y40.5662
G01 X36.7962 Y40.6586
G01 X36.7933 Y40.6655
G01 X36.7513 Y40.7542
G01 X36.7478 Y40.7609
G01 X36.6973 Y40.8451
G01 X36.6932 Y40.8513
G01 X36.6347 Y40.9301
G01 X36.6299 Y40.9360
G01 X36.5640 Y41.0087
G01 X36.5587 Y41.0140
G01 X36.4860 Y41.0799
G01 X36.4801 Y41.0847
G01 X36.4013 Y41.1432
G01 X36.3951 Y41.1473
G01 X36.3109 Y41.1978
G01 X36.3042 Y41.2013
G01 X36.2155 Y41.2433
G01 X36.2086 Y41.2462
G01 X36.1162 Y41.2793
G01 X36.1089 Y41.2814
G01 X36.0138 Y41.3053
G01 X36.0064 Y41.3068
G01 X35.9093 Y41.3212
G01 X35.9018 Y41.3219
G01 X35.8038 Y41.3267
G01 X35.7962 Y41.3267
G01 X35.6982 Y41.3219
G01 X35.6907 Y41.3212
G01 X35.5936 Y41.3068
G01 X35.5862 Y41.3053
G01 X35.4911 Y41.2814
G01 X35.4838 Y41.2793
G01 X35.3914 Y41.2462
G01 X35.3845 Y41.2433
G01 X35.2958 Y41.2013
G01 X35.2891 Y41.1978
G01 X35.2049 Y41.1473
G01 X35.1992 Y41.1435
G01 X35.1199 Y41.0847
G01 X35.1140 Y41.0799
G01 X35.0413 Y41.0140
G01 X35.0360 Y41.0087
G01 X34.9701 Y40.9360
G01 X34.9653 Y40.9301
G01 X34.9068 Y40.8513
G01 X34.9027 Y40.8451
G01 X34.8522 Y40.7609
G01 X34.8487 Y40.7542
G01 X34.8067 Y40.6655
G01 X34.8038 Y40.6586
G01 X34.7707 Y40.5662
G01 X34.7686 Y40.5589
G01 X34.7447 Y40.4638
G01 X34.7434 Y40.4573
G01 X34.7288 Y40.3593
G01 X34.7281 Y40.3518
G01 X34.7233 Y40.2538
G01 X34.7233 Y40.2462
G01 X34.7281 Y40.1482
G01 X34.7288 Y40.1407
G01 X34.7432 Y40.0436
G01 X34.7447 Y40.0362
G01 X34.7686 Y39.9411
G01 X34.7707 Y39.9338
G01 X34.8038 Y39.8414
G01 X34.8067 Y39.8345
G01 X34.8487 Y39.7458
G01 X34.8522 Y39.7391
G01 X34.9027 Y39.6549
G01 X34.9065 Y39.6492
G01 X34.9246 Y39.6247
G01 X34.4023 Y39.1023
G01 X34.3910 Y39.0892
G01 X34.3851 Y39.0813
G01 X34.3759 Y39.0666
G01 X34.3723 Y39.0600
G01 X34.3653 Y39.0442
G01 X34.3619 Y39.0349
G01 X34.3574 Y39.0182
G01 X34.3545 Y39.0011
G01 X34.3537 Y38.9936
G01 X34.3531 Y38.9800
G01 X34.3531 Y31.7402
G01 X34.3358 Y31.7372
G01 X34.2501 Y31.7157
G01 X34.2429 Y31.7136
G01 X34.1597 Y31.6838
G01 X34.1527 Y31.6809
G01 X34.0729 Y31.6432
G01 X34.0663 Y31.6396
G01 X33.9905 Y31.5942
G01 X33.9847 Y31.5904
G01 X33.9133 Y31.5374
G01 X33.9075 Y31.5326
G01 X33.8420 Y31.4733
G01 X33.8367 Y31.4680
G01 X33.7774 Y31.4025
G01 X33.7726 Y31.3967
G01 X33.7200 Y31.3258
G01 X33.7158 Y31.3195
G01 X33.6704 Y31.2437
G01 X33.6668 Y31.2371
G01 X33.6291 Y31.1573
G01 X33.6262 Y31.1503
G01 X33.5964 Y31.0671
G01 X33.5943 Y31.0599
G01 X33.5728 Y30.9742
G01 X33.5713 Y30.9669
G01 X33.5584 Y30.8795
G01 X33.5578 Y30.8720
G00 Z2.0000
G00 X33.4199 Y30.8787
G01 F60.00
G01 Z-0.1000
G01 F120.00
G01 X33.4196 Y30.8788
G01 X33.4152 Y30.7906
G01 X33.4152 Y30.7694
G01 X33.4196 Y30.6812
G01 X33.4216 Y30.6602
G01 X33.4350 Y30.5703
G01 X33.4387 Y30.5522
G01 X33.4602 Y30.4665
G01 X33.4663 Y30.4463
G01 X33.4960 Y30.3631
G01 X33.5041 Y30.3436
G01 X33.5419 Y30.2638
G01 X33.5518 Y30.2452
G01 X33.5972 Y30.1694
G01 X33.6079 Y30.1533
G01 X33.6616 Y30.0809
G01 X33.6753 Y30.0649
G01 X33.6750 Y30.0646
G01 X33.7343 Y29.9992
G01 X33.7492 Y29.9843
G01 X33.8146 Y29.9250
G01 X33.8309 Y29.9116
G01 X33.9019 Y29.8590
G01 X33.9194 Y29.8472
G01 X33.9952 Y29.8018
G01 X34.0138 Y29.7919
G01 X34.0936 Y29.7541
G01 X34.1131 Y29.7460
G01 X34.1963 Y29.7163
G01 X34.2165 Y29.7102
G01 X34.3022 Y29.6887
G01 X34.3203 Y29.6850
G01 X34.4102 Y29.6716
G01 X34.4313 Y29.6699
G01 X34.4312 Y29.6696
G01 X34.5194 Y29.6652
G01 X34.5406 Y29.6652
G01 X34.6288 Y29.6696
G01 X34.6498 Y29.6716
G01 X34.7371 Y29.6846
G01 X34.7578 Y29.6887
G01 X34.8435 Y29.7102
G01 X34.8637 Y29.7163
G01 X34.9469 Y29.7460
G01 X34.9664 Y29.7541
G01 X35.0462 Y29.7919
G01 X35.0648 Y29.8018
G01 X35.1406 Y29.8472
G01 X35.1567 Y29.8579
G01 X35.2291 Y29.9116
G01 X35.2451 Y29.9253
G01 X35.2454 Y29.9250
G01 X35.3108 Y29.9843
G01 X35.3257 Y29.9992
G01 X35.3850 Y30.0646
G01 X35.3984 Y30.0809
G01 X35.4510 Y30.1519
G01 X35.4628 Y30.1694
G01 X35.5082 Y30.2452
G01 X35.5181 Y30.2638
G01 X35.5559 Y30.3436
G01 X35.5640 Y30.3631
G01 X35.5937 Y30.4463
G01 X35.5998 Y30.4665
G01 X35.6213 Y30.5522
G01 X35.6250 Y30.5703
G01 X35.6384 Y30.6602
G01 X35.6401 Y30.6813
G01 X35.6404 Y30.6812
G01 X35.6448 Y30.7694
G01 X35.6448 Y30.7906
G01 X35.6404 Y30.8788
G01 X35.6384 Y30.8998
G01 X35.6254 Y30.9871
G01 X35.6213 Y31.0078
G01 X35.5998 Y31.0935
G01 X35.5937 Y31.1137
G01 X35.5640 Y31.1969
G01 X35.5559 Y31.2164
G01 X35.5181 Y31.2962
G01 X35.5082 Y31.3148
G01 X35.4628 Y31.3906
G01 X35.4521 Y31.4067
G01 X35.3984 Y31.4791
G01 X35.3847 Y31.4951
G01 X35.3850 Y31.4954
G01 X35.3257 Y31.5608
G01 X35.3108 Y31.5757
G01 X35.2454 Y31.6350
G01 X35.2291 Y31.6484
G01 X35.1581 Y31.7010
G01 X35.1406 Y31.7128
G01 X35.0648 Y31.7582
G01 X35.0462 Y31.7681
G01 X34.9664 Y31.8059
G01 X34.9469 Y31.8140
G01 X34.8637 Y31.8437
G01 X34.8451 Y31.8494
G01 X34.8451 Y38.8495
G01 X35.1938 Y39.1982
G01 X35.2181 Y39.1836
G01 X35.2367 Y39.1737
G01 X35.3254 Y39.1317
G01 X35.3449 Y39.1237
G01 X35.4373 Y39.0906
G01 X35.4575 Y39.0845
G01 X35.5527 Y39.0606
G01 X35.5707 Y39.0569
G01 X35.6704 Y39.0421
G01 X35.6914 Y39.0404
G01 X35.6914 Y39.0400
G01 X35.7894 Y39.0352
G01 X35.8106 Y39.0352
G01 X35.9086 Y39.0400
G01 X35.9296 Y39.0421
G01 X36.0266 Y39.0565
G01 X36.0473 Y39.0606
G01 X36.1425 Y39.0845
G01 X36.1627 Y39.0906
G01 X36.2551 Y39.1237
G01 X36.2746 Y39.1317
G01 X36.3633 Y39.1737
G01 X36.3819 Y39.1836
G01 X36.4661 Y39.2341
G01 X36.4822 Y39.2448
G01 X36.5625 Y39.3043
G01 X36.5785 Y39.3180
G01 X36.5788 Y39.3177
G01 X36.6515 Y39.3836
G01 X36.6664 Y39.3985
G01 X36.7323 Y39.4712
G01 X36.7457 Y39.4875
G01 X36.8042 Y39.5663
G01 X36.8159 Y39.5839
G01 X36.8664 Y39.6681
G01 X36.8763 Y39.6867
G01 X36.9183 Y39.7754
G01 X36.9263 Y39.7949
G01 X36.9594 Y39.8873
G01 X36.9655 Y39.9075
G01 X36.9894 Y40.0027
G01 X36.9931 Y40.0207
G01 X37.0079 Y40.1204
G01 X37.0096 Y40.1414
G01 X37.0100 Y40.1414
G01 X37.0148 Y40.2394
G01 X37.0148 Y40.2606
G01 X37.0100 Y40.3586
G01 X37.0079 Y40.3796
G01 X36.9935 Y40.4766
G01 X36.9894 Y40.4973
G01 X36.9655 Y40.5925
G01 X36.9592 Y40.6126
G01 X36.9594 Y40.6127
G01 X36.9263 Y40.7051
G01 X36.9183 Y40.7246
G01 X36.8763 Y40.8133
G01 X36.8664 Y40.8319
G01 X36.8159 Y40.9161
G01 X36.8052 Y40.9322
G01 X36.7457 Y41.0125
G01 X36.7320 Y41.0285
G01 X36.7323 Y41.0288
G01 X36.6664 Y41.1015
G01 X36.6515 Y41.1164
G01 X36.5788 Y41.1823
G01 X36.5625 Y41.1957
G01 X36.4837 Y41.2542
G01 X36.4661 Y41.2659
G01 X36.3819 Y41.3164
G01 X36.3633 Y41.3263
G01 X36.2746 Y41.3683
G01 X36.2551 Y41.3763
G01 X36.1627 Y41.4094
G01 X36.1425 Y41.4155
G01 X36.0473 Y41.4394
G01 X36.0293 Y41.4431
G01 X35.9296 Y41.4579
G01 X35.9086 Y41.4596
G01 X35.9086 Y41.4600
G01 X35.8106 Y41.4648
G01 X35.7894 Y41.4648
G01 X35.6914 Y41.4600
G01 X35.6704 Y41.4579
G01 X35.5734 Y41.4435
G01 X35.5527 Y41.4394
G01 X35.4575 Y41.4155
G01 X35.4374 Y41.4092
G01 X35.4373 Y41.4094
G01 X35.3449 Y41.3763
G01 X35.3254 Y41.3683
G01 X35.2367 Y41.3263
G01 X35.2181 Y41.3164
G01 X35.1339 Y41.2659
G01 X35.1178 Y41.2552
G01 X35.0375 Y41.1957
G01 X35.0215 Y41.1820
G01 X35.0212 Y41.1823
G01 X34.9485 Y41.1164
G01 X34.9336 Y41.1015
G01 X34.8677 Y41.0288
G01 X34.8543 Y41.0125
G01 X34.7958 Y40.9337
G01 X34.7841 Y40.9161
G01 X34.7336 Y40.8319
G01 X34.7237 Y40.8133
G01 X34.6817 Y40.7246
G01 X34.6737 Y40.7051
G01 X34.6406 Y40.6127
G01 X34.6345 Y40.5925
G01 X34.6106 Y40.4973
G01 X34.6069 Y40.4793
G01 X34.5921 Y40.3796
G01 X34.5904 Y40.3586
G01 X34.5900 Y40.3586
G01 X34.5852 Y40.2606
G01 X34.5852 Y40.2394
G01 X34.5900 Y40.1414
G01 X34.5921 Y40.1204
G01 X34.6065 Y40.0234
G01 X34.6106 Y40.0027
G01 X34.6345 Y39.9075
G01 X34.6406 Y39.8873
G01 X34.6737 Y39.7949
G01 X34.6817 Y39.7754
G01 X34.7237 Y39.6867
G01 X34.7336 Y39.6681
G01 X34.7482 Y39.6438
G01 X34.3072 Y39.2028
G01 X34.2933 Y39.1879
G01 X34.2799 Y39.1716
G01 X34.2741 Y39.1637
G01 X34.2624 Y39.1461
G01 X34.2573 Y39.1377
G01 X34.2474 Y39.1191
G01 X34.2432 Y39.1102
G01 X34.2351 Y39.0907
G01 X34.2318 Y39.0815
G01 X34.2257 Y39.0613
G01 X34.2233 Y39.0518
G01 X34.2196 Y39.0337
G01 X34.2177 Y39.0214
G01 X34.2160 Y39.0003
G01 X34.2157 Y39.0004
G01 X34.2149 Y38.9800
G01 X34.2149 Y31.8493
G01 X34.1963 Y31.8437
G01 X34.1131 Y31.8140
G01 X34.0936 Y31.8059
G01 X34.0138 Y31.7681
G01 X33.9952 Y31.7582
G01 X33.9194 Y31.7128
G01 X33.9033 Y31.7021
G01 X33.8309 Y31.6484
G01 X33.8149 Y31.6347
G01 X33.8146 Y31.6350
G01 X33.7492 Y31.5757
G01 X33.7343 Y31.5608
G01 X33.6750 Y31.4954
G01 X33.6616 Y31.4791
G01 X33.6090 Y31.4081
G01 X33.5972 Y31.3906
G01 X33.5518 Y31.3148
G01 X33.5419 Y31.2962
G01 X33.5041 Y31.2164
G01 X33.4960 Y31.1969
G01 X33.4663 Y31.1137
G01 X33.4602 Y31.0935
G01 X33.4387 Y31.0078
G01 X33.4350 Y30.9897
G01 X33.4216 Y30.8998
G01 X33.4199 Y30.8787
G00 Z2.0000
G00 X33.2433 Y30.0846
G01 F60.00
G01 Z-0.1000
G01 F120.00
G01 X33.2500 Y30.0882
G01 X33.2809 Y30.1014
G01 X33.3463 Y30.1259
G01 X33.3465 Y30.1254
G01 X33.3641 Y30.1319
G01 X33.3995 Y30.1411
G01 X33.4357 Y30.1465
G01 X33.4494 Y30.1471
G01 X33.4333 Y30.1741
G01 X33.4169 Y30.2047
G01 X33.3791 Y30.2845
G01 X33.3659 Y30.3166
G01 X33.3361 Y30.3997
G01 X33.3365 Y30.3999
G01 X33.3261 Y30.4329
G01 X33.3046 Y30.5186
G01 X33.2985 Y30.5483
G01 X33.2849 Y30.6399
G01 X33.2815 Y30.6744
G01 X33.2771 Y30.7627
G01 X33.2771 Y30.7973
G01 X33.2815 Y30.8856
G01 X33.2821 Y30.8855
G01 X33.2849 Y30.9201
G01 X33.2985 Y31.0117
G01 X33.3046 Y31.0414
G01 X33.3261 Y31.1271
G01 X33.3361 Y31.1603
G01 X33.3659 Y31.2434
G01 X33.3791 Y31.2755
G01 X33.4169 Y31.3553
G01 X33.4333 Y31.3859
G01 X33.4520 Y31.4172
G01 X33.4295 Y31.4178
G01 X33.3966 Y31.4204
G01 X33.3640 Y31.4260
G01 X33.3321 Y31.4346
G01 X33.3012 Y31.4462
G01 X33.2699 Y31.4614
G01 X33.2433 Y31.4778
G01 X33.2433 Y30.0846
G00 Z2.0000
G00 X49.0341 Y14.0489
G01 F60.00
G01 Z-0.1000
G01 F120.00
G01 X49.0341 Y6.5587
G01 X83.1932 Y6.5587
G01 X83.1932 Y14.0489
G01 X49.0341 Y14.0489
G00 Z2.0000
G00 X49.1723 Y13.9106
G01 F60.00
G01 Z-0.1000
G01 F120.00
G01 X49.1723 Y6.6970
G01 X83.0550 Y6.6970
G01 X83.0550 Y13.9106
G01 X49.1723 Y13.9106
G00 Z2.0000
G00 X49.3876 Y13.4690
G01 F60.00
G01 Z-0.1000
G01 F120.00
G01 X49.3877 Y11.9652
G01 X49.3892 Y11.9430
G01 X49.3928 Y11.9211
G01 X49.3964 Y11.9068
G01 X49.4035 Y11.8857
G01 X49.4127 Y11.8654
G01 X49.4163 Y11.8588
G01 X49.4277 Y11.8404
G01 X49.4368 Y11.8280
G01 X49.4515 Y11.8113
G01 X49.4568 Y11.8060
G01 X49.4736 Y11.7913
G01 X49.4854 Y11.7825
G01 X49.5043 Y11.7708
G01 X49.5242 Y11.7609
G01 X49.5451 Y11.7531
G01 X49.5523 Y11.7509
G01 X49.5730 Y11.7460
G01 X49.5885 Y11.7437
G01 X49.5960 Y11.7429
G01 X49.6183 Y11.7422
G01 X49.6330 Y11.7429
G01 X49.6551 Y11.7458
G01 X49.6767 Y11.7509
G01 X49.6978 Y11.7580
G01 X49.7048 Y11.7609
G01 X49.7247 Y11.7708
G01 X49.7431 Y11.7822
G01 X49.7555 Y11.7913
G01 X49.7722 Y11.8060
G01 X49.7874 Y11.8222
G01 X49.7922 Y11.8280
G01 X49.8052 Y11.8461
G01 X49.8127 Y11.8588
G01 X49.8226 Y11.8787
G01 X49.8304 Y11.8996
G01 X49.8326 Y11.9068
G01 X49.8375 Y11.9275
G01 X49.8398 Y11.9430
G01 X49.8406 Y11.9505
G01 X49.8414 Y11.9690
G01 X49.8414 Y12.4463
G01 X49.9089 Y12.3016
G01 X49.9175 Y12.2852
G01 X49.9225 Y12.2769
G01 X49.9294 Y12.2665
G01 X49.9353 Y12.2585
G01 X49.9482 Y12.2433
G01 X49.9588 Y12.2326
G01 X49.9659 Y12.2262
G01 X49.9755 Y12.2184
G01 X49.9834 Y12.2125
G01 X49.9937 Y12.2056
G01 X50.0022 Y12.2005
G01 X50.0131 Y12.1947
G01 X50.0220 Y12.1905
G01 X50.0335 Y12.1857
G01 X50.0428 Y12.1824
G01 X50.0546 Y12.1788
G01 X50.0634 Y12.1766
G01 X50.0764 Y12.1740
G01 X50.0861 Y12.1725
G01 X50.0985 Y12.1713
G01 X50.1079 Y12.1708
G01 X50.1211 Y12.1708
G01 X50.1306 Y12.1713
G01 X50.1429 Y12.1725
G01 X50.1527 Y12.1740
G01 X50.1648 Y12.1764
G01 X50.1744 Y12.1788
G01 X50.1863 Y12.1824
G01 X50.1956 Y12.1857
G01 X50.2070 Y12.1905
G01 X50.2159 Y12.1947
G01 X50.2269 Y12.2005
G01 X50.2352 Y12.2055
G01 X50.2456 Y12.2125
G01 X50.2536 Y12.2184
G01 X50.2631 Y12.2262
G01 X50.2702 Y12.2326
G01 X50.2795 Y12.2419
G01 X50.2858 Y12.2490
G01 X50.2937 Y12.2585
G01 X50.2996 Y12.2665
G01 X50.3077 Y12.2787
G01 X50.3174 Y12.2962
G01 X50.3876 Y12.4463
G01 X50.3877 Y11.9652
G01 X50.3885 Y11.9505
G01 X50.3913 Y11.9285
G01 X50.3964 Y11.9068
G01 X50.4035 Y11.8857
G01 X50.4064 Y11.8787
G01 X50.4163 Y11.8588
G01 X50.4277 Y11.8404
G01 X50.4368 Y11.8280
G01 X50.4515 Y11.8113
G01 X50.4677 Y11.7961
G01 X50.4854 Y11.7825
G01 X50.5043 Y11.7708
G01 X50.5242 Y11.7609
G01 X50.5451 Y11.7531
G01 X50.5523 Y11.7509
G01 X50.5730 Y11.7460
G01 X50.5885 Y11.7437
G01 X50.5960 Y11.7429
G01 X50.6183 Y11.7422
G01 X50.6405 Y11.7437
G01 X50.6624 Y11.7473
G01 X50.6767 Y11.7509
G01 X50.6978 Y11.7580
G01 X50.7181 Y11.7672
G01 X50.7374 Y11.7783
G01 X50.7431 Y11.7822
G01 X50.7555 Y11.7913
G01 X50.7722 Y11.8060
G01 X50.7874 Y11.8222
G01 X50.7922 Y11.8280
G01 X50.8052 Y11.8461
G01 X50.8163 Y11.8654
G01 X50.8226 Y11.8787
G01 X50.8304 Y11.8996
G01 X50.8362 Y11.9211
G01 X50.8375 Y11.9275
G01 X50.8398 Y11.9430
G01 X50.8406 Y11.9505
G01 X50.8414 Y11.9690
G01 X50.8412 Y13.4775
G01 X50.8398 Y13.4950
G01 X50.8381 Y13.5072
G01 X50.8362 Y13.5169
G01 X50.8326 Y13.5312
G01 X50.8264 Y13.5500
G01 X50.8206 Y13.5636
G01 X50.8127 Y13.5792
G01 X50.8014 Y13.5976
G01 X50.7922 Y13.6100
G01 X50.7843 Y13.6194
G01 X50.7775 Y13.6267
G01 X50.7687 Y13.6353
G01 X50.7613 Y13.6419
G01 X50.7517 Y13.6496
G01 X50.7436 Y13.6555
G01 X50.7333 Y13.6622
G01 X50.7181 Y13.6708
G01 X50.7070 Y13.6761
G01 X50.6978 Y13.6800
G01 X50.6863 Y13.6842
G01 X50.6767 Y13.6871
G01 X50.6656 Y13.6900
G01 X50.6560 Y13.6920
G01 X50.6429 Y13.6940
G01 X50.6282 Y13.6954
G01 X50.6107 Y13.6958
G01 X50.5985 Y13.6952
G01 X50.5885 Y13.6943
G01 X50.5764 Y13.6926
G01 X50.5666 Y13.6907
G01 X50.5546 Y13.6878
G01 X50.5451 Y13.6849
G01 X50.5335 Y13.6808
G01 X50.5242 Y13.6771
G01 X50.5131 Y13.6719
G01 X50.5043 Y13.6672
G01 X50.4938 Y13.6610
G01 X50.4859 Y13.6558
G01 X50.4755 Y13.6482
G01 X50.4677 Y13.6419
G01 X50.4568 Y13.6320
G01 X50.4482 Y13.6232
G01 X50.4416 Y13.6158
G01 X50.4294 Y13.6001
G01 X50.4239 Y13.5919
G01 X50.4175 Y13.5813
G01 X50.4089 Y13.5649
G01 X50.1145 Y12.9341
G01 X49.8163 Y13.5726
G01 X49.8077 Y13.5878
G01 X49.8014 Y13.5976
G01 X49.7951 Y13.6062
G01 X49.7874 Y13.6158
G01 X49.7775 Y13.6267
G01 X49.7702 Y13.6340
G01 X49.7613 Y13.6419
G01 X49.7475 Y13.6527
G01 X49.7374 Y13.6597
G01 X49.7247 Y13.6672
G01 X49.7091 Y13.6751
G01 X49.6956 Y13.6808
G01 X49.6839 Y13.6849
G01 X49.6678 Y13.6895
G01 X49.6470 Y13.6935
G01 X49.6330 Y13.6951
G01 X49.6183 Y13.6958
G01 X49.6008 Y13.6954
G01 X49.5861 Y13.6940
G01 X49.5666 Y13.6907
G01 X49.5523 Y13.6871
G01 X49.5357 Y13.6817
G01 X49.5242 Y13.6771
G01 X49.5109 Y13.6708
G01 X49.4957 Y13.6622
G01 X49.4859 Y13.6558
G01 X49.4736 Y13.6467
G01 X49.4603 Y13.6353
G01 X49.4495 Y13.6247
G01 X49.4416 Y13.6158
G01 X49.4308 Y13.6020
G01 X49.4226 Y13.5898
G01 X49.4127 Y13.5726
G01 X49.4064 Y13.5593
G01 X49.4001 Y13.5430
G01 X49.3964 Y13.5312
G01 X49.3928 Y13.5169
G01 X49.3900 Y13.5015
G01 X49.3883 Y13.4851
G01 X49.3876 Y13.4690
G00 Z2.0000
G00 X50.0160 Y13.7724
G01 F60.00
G01 Z-0.1000
G01 F120.00
G01 X50.0287 Y13.7551
G01 X50.0283 Y13.7548
G01 X50.0384 Y13.7402
G01 X50.0547 Y13.7131
G01 X50.0706 Y13.6819
G01 X50.1145 Y13.5879
G01 X50.1584 Y13.6819
G01 X50.1587 Y13.6817
G01 X50.1628 Y13.6908
G01 X50.1743 Y13.7131
G01 X50.1906 Y13.7402
G01 X50.2004 Y13.7551
G01 X50.2131 Y13.7724
G01 X50.0160 Y13.7724
G00 Z2.0000
G00 X50.9796 Y12.5871
G01 F60.00
G01 Z-0.1000
G01 F120.00
G01 X51.0072 Y12.6416
G01 X51.0170 Y12.6589
G01 X51.0250 Y12.6713
G01 X51.0333 Y12.6833
G01 X51.0251 Y12.6951
G01 X51.0144 Y12.7121
G01 X51.0072 Y12.7250
G01 X50.9977 Y12.7438
G01 X50.9918 Y12.7573
G01 X50.9843 Y12.7770
G01 X50.9796 Y12.7912
G01 X50.9796 Y12.5871
G00 Z2.0000
G00 X51.0305 Y12.3261
G01 F60.00
G01 Z-0.1000
G01 F120.00
G01 X51.0305 Y12.1833
G01 X51.0313 Y12.1648
G01 X51.0332 Y12.1488
G01 X51.0357 Y12.1354
G01 X51.0396 Y12.1198
G01 X51.0469 Y12.0987
G01 X51.0544 Y12.0818
G01 X51.1259 Y11.9390
G01 X51.1332 Y11.9255
G01 X51.1416 Y11.9124
G01 X51.1519 Y11.8984
G01 X51.1599 Y11.8890
G01 X51.1658 Y11.8826
G01 X51.1774 Y11.8716
G01 X51.1868 Y11.8636
G01 X51.2008 Y11.8532
G01 X51.2132 Y11.8453
G01 X51.2273 Y11.8375
G01 X51.3702 Y11.7661
G01 X51.3814 Y11.7609
G01 X51.3941 Y11.7559
G01 X51.4148 Y11.7494
G01 X51.4357 Y11.7450
G01 X51.4532 Y11.7429
G01 X51.4717 Y11.7421
G01 X51.8288 Y11.7421
G01 X51.8473 Y11.7429
G01 X51.8633 Y11.7448
G01 X51.8767 Y11.7473
G01 X51.8851 Y11.7493
G01 X51.9002 Y11.7538
G01 X51.9094 Y11.7509
G01 X51.9237 Y11.7473
G01 X51.9302 Y11.7460
G01 X51.9457 Y11.7437
G01 X51.9679 Y11.7422
G01 X51.9901 Y11.7429
G01 X52.0122 Y11.7458
G01 X52.0196 Y11.7473
G01 X52.0411 Y11.7531
G01 X52.0619 Y11.7609
G01 X52.0752 Y11.7672
G01 X52.0945 Y11.7783
G01 X52.1003 Y11.7822
G01 X52.1126 Y11.7913
G01 X52.1184 Y11.7961
G01 X52.1347 Y11.8113
G01 X52.1493 Y11.8280
G01 X52.1623 Y11.8461
G01 X52.1699 Y11.8588
G01 X52.1797 Y11.8787
G01 X52.1876 Y11.8996
G01 X52.1933 Y11.9211
G01 X52.1947 Y11.9275
G01 X52.1970 Y11.9430
G01 X52.1977 Y11.9505
G01 X52.1985 Y11.9690
G01 X52.1985 Y12.7547
G01 X52.1976 Y12.7746
G01 X52.1946 Y12.7966
G01 X52.1894 Y12.8183
G01 X52.1821 Y12.8393
G01 X52.1746 Y12.8562
G01 X52.1031 Y12.9990
G01 X52.0958 Y13.0125
G01 X52.0903 Y13.0213
G01 X52.0831 Y13.0317
G01 X52.0740 Y13.0433
G01 X52.0632 Y13.0554
G01 X52.0534 Y13.0648
G01 X52.0422 Y13.0744
G01 X52.0344 Y13.0805
G01 X52.0242 Y13.0875
G01 X52.0093 Y13.0965
G01 X51.8588 Y13.1719
G01 X51.8476 Y13.1771
G01 X51.8349 Y13.1822
G01 X51.8142 Y13.1886
G01 X51.7933 Y13.1930
G01 X51.7758 Y13.1951
G01 X51.7574 Y13.1959
G01 X51.4717 Y13.1959
G01 X51.4518 Y13.1949
G01 X51.4298 Y13.1919
G01 X51.4154 Y13.1887
G01 X51.4022 Y13.1849
G01 X51.3883 Y13.1800
G01 X51.3736 Y13.1735
G01 X51.2273 Y13.1005
G01 X51.2112 Y13.0915
G01 X51.2051 Y13.0877
G01 X51.1868 Y13.0744
G01 X51.1710 Y13.0605
G01 X51.1599 Y13.0490
G01 X51.1550 Y13.0433
G01 X51.1416 Y13.0256
G01 X51.1336 Y13.0132
G01 X51.1233 Y12.9935
G01 X51.1148 Y12.9729
G01 X51.1125 Y12.9657
G01 X51.1070 Y12.9452
G01 X51.1043 Y12.9297
G01 X51.1033 Y12.9222
G01 X51.1020 Y12.9017
G01 X51.1023 Y12.8853
G01 X51.1029 Y12.8777
G01 X51.1059 Y12.8557
G01 X51.1091 Y12.8413
G01 X51.1156 Y12.8200
G01 X51.1243 Y12.7995
G01 X51.1276 Y12.7928
G01 X51.1387 Y12.7739
G01 X51.1473 Y12.7615
G01 X51.1519 Y12.7556
G01 X51.1658 Y12.7398
G01 X51.1774 Y12.7287
G01 X51.1946 Y12.7147
G01 X51.2132 Y12.7024
G01 X51.2198 Y12.6987
G01 X51.2329 Y12.6920
G01 X51.2519 Y12.6842
G01 X51.2273 Y12.6719
G01 X51.2139 Y12.6646
G01 X51.2008 Y12.6562
G01 X51.1927 Y12.6505
G01 X51.1831 Y12.6428
G01 X51.1710 Y12.6320
G01 X51.1615 Y12.6222
G01 X51.1550 Y12.6147
G01 X51.1459 Y12.6032
G01 X51.1349 Y12.5866
G01 X51.1259 Y12.5705
G01 X51.0544 Y12.4276
G01 X51.0469 Y12.4107
G01 X51.0396 Y12.3897
G01 X51.0344 Y12.3679
G01 X51.0314 Y12.3460
G01 X51.0305 Y12.3261
G00 Z2.0000
G00 X51.4979 Y12.2095
G01 F60.00
G01 Z-0.1000
G01 F120.00
G01 X51.5252 Y12.1959
G01 X51.7448 Y12.1959
G01 X51.7448 Y12.3136
G01 X51.5252 Y12.3136
G01 X51.4979 Y12.2999
G01 X51.4842 Y12.2726
G01 X51.4842 Y12.2368
G01 X51.4979 Y12.2095
G00 Z2.0000
G00 X51.0157 Y11.1149
G01 F60.00
G01 Z-0.1000
G01 F120.00
G01 X51.0419 Y11.1279
G01 X51.0612 Y11.1371
G01 X51.0933 Y11.1509
G01 X51.1196 Y11.1605
G01 X51.1273 Y11.1630
G01 X51.1275 Y11.1625
G01 X51.1490 Y11.1700
G01 X51.1749 Y11.1768
G01 X51.2102 Y11.1846
G01 X51.2447 Y11.1900
G01 X51.2766 Y11.1935
G01 X51.3047 Y11.1951
G01 X51.3288 Y11.1957
G01 X51.5431 Y11.1957
G01 X51.5672 Y11.1951
G01 X51.5952 Y11.1935
G01 X51.6299 Y11.1896
G01 X51.6352 Y11.1889
G01 X51.6351 Y11.1881
G01 X51.6617 Y11.1846
G01 X51.6918 Y11.1781
G01 X51.6970 Y11.1768
G01 X51.6967 Y11.1758
G01 X51.7190 Y11.1711
G01 X51.7229 Y11.1700
G01 X51.7522 Y11.1605
G01 X51.7786 Y11.1509
G01 X51.8082 Y11.1382
G01 X51.8348 Y11.1255
G01 X51.8361 Y11.1409
G01 X51.8392 Y11.1614
G01 X51.8477 Y11.2028
G01 X51.8513 Y11.2171
G01 X51.8653 Y11.2632
G01 X51.8702 Y11.2771
G01 X51.8887 Y11.3217
G01 X51.8930 Y11.3308
G01 X51.8809 Y11.3295
G01 X51.8582 Y11.3283
G01 X51.8288 Y11.3274
G01 X51.4717 Y11.3274
G01 X51.4475 Y11.3280
G01 X51.4154 Y11.3299
G01 X51.3875 Y11.3331
G01 X51.3796 Y11.3342
G01 X51.3797 Y11.3350
G01 X51.3571 Y11.3377
G01 X51.3229 Y11.3450
G01 X51.3178 Y11.3463
G01 X51.3180 Y11.3473
G01 X51.2958 Y11.3520
G01 X51.2918 Y11.3531
G01 X51.2625 Y11.3626
G01 X51.2323 Y11.3737
G01 X51.2066 Y11.3849
G01 X51.1847 Y11.3951
G01 X51.0419 Y11.4666
G01 X51.0420 Y11.4669
G01 X51.0235 Y11.4762
G01 X51.0025 Y11.4582
G01 X50.9874 Y11.4470
G01 X50.9506 Y11.4226
G01 X50.9379 Y11.4151
G01 X50.8954 Y11.3923
G01 X50.8821 Y11.3860
G01 X50.8472 Y11.3716
G01 X50.8614 Y11.3572
G01 X50.8768 Y11.3405
G01 X50.8857 Y11.3304
G01 X50.8853 Y11.3301
G01 X50.9004 Y11.3131
G01 X50.9198 Y11.2874
G01 X50.9245 Y11.2808
G01 X50.9236 Y11.2803
G01 X50.9374 Y11.2621
G01 X50.9542 Y11.2347
G01 X50.9692 Y11.2078
G01 X51.0157 Y11.1149
G00 Z2.0000
G00 X50.9489 Y10.9266
G01 F60.00
G01 Z-0.1000
G01 F120.00
G01 X50.9608 Y10.9329
G01 X51.1037 Y11.0043
G01 X51.1203 Y11.0121
G01 X51.1406 Y11.0209
G01 X51.1652 Y11.0300
G01 X51.1662 Y11.0303
G01 X51.1664 Y11.0299
G01 X51.1873 Y11.0371
G01 X51.2127 Y11.0437
G01 X51.2353 Y11.0487
G01 X51.2612 Y11.0528
G01 X51.2842 Y11.0555
G01 X51.3115 Y11.0570
G01 X51.3288 Y11.0574
G01 X51.5431 Y11.0574
G01 X51.5604 Y11.0570
G01 X51.5876 Y11.0555
G01 X51.6106 Y11.0528
G01 X51.6106 Y11.0521
G01 X51.6366 Y11.0487
G01 X51.6592 Y11.0437
G01 X51.6590 Y11.0428
G01 X51.6807 Y11.0383
G01 X51.7057 Y11.0303
G01 X51.7275 Y11.0224
G01 X51.7516 Y11.0121
G01 X51.7682 Y11.0043
G01 X51.9153 Y10.9307
G01 X51.9392 Y10.9175
G01 X51.9581 Y10.9061
G01 X51.9683 Y10.8992
G01 X51.9683 Y11.0541
G01 X51.9687 Y11.0714
G01 X51.9694 Y11.0861
G01 X51.9700 Y11.0861
G01 X51.9728 Y11.1206
G01 X51.9757 Y11.1395
G01 X51.9818 Y11.1692
G01 X51.9853 Y11.1835
G01 X51.9954 Y11.2167
G01 X52.0004 Y11.2305
G01 X52.0136 Y11.2626
G01 X52.0199 Y11.2759
G01 X52.0363 Y11.3065
G01 X52.0439 Y11.3191
G01 X52.0631 Y11.3479
G01 X52.0719 Y11.3597
G01 X52.0939 Y11.3865
G01 X52.1038 Y11.3975
G01 X52.1283 Y11.4220
G01 X52.1392 Y11.4319
G01 X52.1396 Y11.4314
G01 X52.1660 Y11.4539
G01 X52.1802 Y11.4644
G01 X52.2067 Y11.4819
G01 X52.2193 Y11.4895
G01 X52.2499 Y11.5058
G01 X52.2632 Y11.5121
G01 X52.2952 Y11.5254
G01 X52.3091 Y11.5303
G01 X52.3092 Y11.5300
G01 X52.3422 Y11.5404
G01 X52.3565 Y11.5440
G01 X52.3905 Y11.5507
G01 X52.4037 Y11.5527
G01 X52.3921 Y11.5605
G01 X52.3803 Y11.5692
G01 X52.3535 Y11.5912
G01 X52.3426 Y11.6011
G01 X52.3288 Y11.6149
G01 X52.3150 Y11.6011
G01 X52.3041 Y11.5912
G01 X52.3037 Y11.5917
G01 X52.2773 Y11.5692
G01 X52.2631 Y11.5587
G01 X52.2367 Y11.5412
G01 X52.2240 Y11.5336
G01 X52.1934 Y11.5173
G01 X52.1801 Y11.5110
G01 X52.1481 Y11.4977
G01 X52.1342 Y11.4928
G01 X52.1341 Y11.4931
G01 X52.1011 Y11.4827
G01 X52.0868 Y11.4791
G01 X52.0528 Y11.4724
G01 X52.0382 Y11.4702
G01 X52.0037 Y11.4668
G01 X51.9890 Y11.4661
G01 X51.9543 Y11.4661
G01 X51.9396 Y11.4668
G01 X51.9396 Y11.4674
G01 X51.9051 Y11.4702
G01 X51.9002 Y11.4709
G01 X51.8693 Y11.4673
G01 X51.8472 Y11.4661
G01 X51.8288 Y11.4656
G01 X51.4717 Y11.4656
G01 X51.4533 Y11.4661
G01 X51.4312 Y11.4673
G01 X51.4051 Y11.4702
G01 X51.4041 Y11.4703
G01 X51.4042 Y11.4710
G01 X51.3822 Y11.4737
G01 X51.3565 Y11.4791
G01 X51.3555 Y11.4794
G01 X51.3557 Y11.4802
G01 X51.3341 Y11.4848
G01 X51.3091 Y11.4928
G01 X51.2873 Y11.5006
G01 X51.2632 Y11.5110
G01 X51.2465 Y11.5188
G01 X51.1037 Y11.5902
G01 X51.1039 Y11.5905
G01 X51.0884 Y11.5983
G01 X51.0672 Y11.6104
G01 X51.0462 Y11.6240
G01 X51.0263 Y11.6381
G01 X51.0265 Y11.6384
G01 X51.0065 Y11.6539
G01 X50.9923 Y11.6365
G01 X50.9824 Y11.6256
G01 X50.9579 Y11.6011
G01 X50.9470 Y11.5912
G01 X50.9465 Y11.5917
G01 X50.9202 Y11.5692
G01 X50.9060 Y11.5587
G01 X50.8795 Y11.5412
G01 X50.8669 Y11.5336
G01 X50.8363 Y11.5173
G01 X50.8230 Y11.5110
G01 X50.7910 Y11.4977
G01 X50.7771 Y11.4928
G01 X50.7770 Y11.4931
G01 X50.7439 Y11.4827
G01 X50.7296 Y11.4791
G01 X50.6956 Y11.4724
G01 X50.6811 Y11.4702
G01 X50.6466 Y11.4668
G01 X50.6318 Y11.4661
G01 X50.5972 Y11.4661
G01 X50.5825 Y11.4668
G01 X50.5825 Y11.4674
G01 X50.5480 Y11.4702
G01 X50.5334 Y11.4724
G01 X50.4994 Y11.4791
G01 X50.4851 Y11.4827
G01 X50.4519 Y11.4928
G01 X50.4381 Y11.4977
G01 X50.4060 Y11.5110
G01 X50.3927 Y11.5173
G01 X50.3621 Y11.5336
G01 X50.3495 Y11.5412
G01 X50.3207 Y11.5605
G01 X50.3089 Y11.5692
G01 X50.2821 Y11.5912
G01 X50.2711 Y11.6011
G01 X50.2466 Y11.6256
G01 X50.2367 Y11.6365
G01 X50.2372 Y11.6370
G01 X50.2147 Y11.6633
G01 X50.2042 Y11.6775
G01 X50.1867 Y11.7040
G01 X50.1791 Y11.7166
G01 X50.1628 Y11.7472
G01 X50.1565 Y11.7605
G01 X50.1432 Y11.7926
G01 X50.1383 Y11.8064
G01 X50.1386 Y11.8066
G01 X50.1282 Y11.8396
G01 X50.1246 Y11.8539
G01 X50.1179 Y11.8879
G01 X50.1169 Y11.8944
G01 X50.1121 Y11.8944
G01 X50.1105 Y11.8836
G01 X50.1044 Y11.8539
G01 X50.1008 Y11.8396
G01 X50.0908 Y11.8064
G01 X50.0858 Y11.7926
G01 X50.0725 Y11.7605
G01 X50.0662 Y11.7472
G01 X50.0499 Y11.7166
G01 X50.0423 Y11.7040
G01 X50.0230 Y11.6752
G01 X50.0143 Y11.6633
G01 X49.9923 Y11.6365
G01 X49.9824 Y11.6256
G01 X49.9579 Y11.6011
G01 X49.9470 Y11.5912
G01 X49.9465 Y11.5917
G01 X49.9202 Y11.5692
G01 X49.9040 Y11.5574
G01 X50.1859 Y11.5574
G01 X50.2043 Y11.5570
G01 X50.2305 Y11.5555
G01 X50.2535 Y11.5528
G01 X50.2534 Y11.5521
G01 X50.2794 Y11.5487
G01 X50.3021 Y11.5437
G01 X50.3019 Y11.5428
G01 X50.3235 Y11.5383
G01 X50.3274 Y11.5371
G01 X50.3495 Y11.5300
G01 X50.3741 Y11.5209
G01 X50.3944 Y11.5121
G01 X50.4110 Y11.5043
G01 X50.5539 Y11.4329
G01 X50.5821 Y11.4175
G01 X50.6044 Y11.4038
G01 X50.6235 Y11.3906
G01 X50.6232 Y11.3903
G01 X50.6412 Y11.3773
G01 X50.6612 Y11.3604
G01 X50.6784 Y11.3448
G01 X50.7624 Y11.2608
G01 X50.7621 Y11.2605
G01 X50.7773 Y11.2445
G01 X50.7780 Y11.2437
G01 X50.7777 Y11.2434
G01 X50.7923 Y11.2268
G01 X50.8082 Y11.2059
G01 X50.8088 Y11.2051
G01 X50.8083 Y11.2047
G01 X50.8131 Y11.1988
G01 X50.8236 Y11.1834
G01 X50.8231 Y11.1831
G01 X50.8356 Y11.1636
G01 X50.8504 Y11.1363
G01 X50.9219 Y10.9935
G01 X50.9292 Y10.9778
G01 X50.9400 Y10.9527
G01 X50.9479 Y10.9310
G01 X50.9475 Y10.9308
G01 X50.9489 Y10.9266
G00 Z2.0000
G00 X50.8162 Y10.2684
G01 F60.00
G01 Z-0.1000
G01 F120.00
G01 X50.8162 Y9.8398
G01 X50.8170 Y9.8213
G01 X50.8189 Y9.8053
G01 X50.8214 Y9.7919
G01 X50.8253 Y9.7763
G01 X50.8321 Y9.7565
G01 X50.8402 Y9.7383
G01 X50.9116 Y9.5955
G01 X50.9206 Y9.5793
G01 X50.9277 Y9.5683
G01 X50.9377 Y9.5549
G01 X50.9515 Y9.5391
G01 X51.0255 Y9.4651
G01 X51.0327 Y9.4583
G01 X51.0450 Y9.4478
G01 X51.0568 Y9.4390
G01 X51.0683 Y9.4316
G01 X51.0845 Y9.4226
G01 X51.2307 Y9.3496
G01 X51.2455 Y9.3431
G01 X51.2594 Y9.3382
G01 X51.2719 Y9.3345
G01 X51.2870 Y9.3311
G01 X51.3090 Y9.3281
G01 X51.3288 Y9.3272
G01 X51.5431 Y9.3272
G01 X51.5616 Y9.3280
G01 X51.5775 Y9.3299
G01 X51.5910 Y9.3324
G01 X51.6053 Y9.3360
G01 X51.6206 Y9.3409
G01 X51.6333 Y9.3460
G01 X51.6445 Y9.3512
G01 X51.7874 Y9.4226
G01 X51.7962 Y9.4273
G01 X51.8097 Y9.4354
G01 X51.8269 Y9.4478
G01 X51.8437 Y9.4625
G01 X51.9178 Y9.5365
G01 X51.9246 Y9.5437
G01 X51.9351 Y9.5560
G01 X51.9438 Y9.5678
G01 X51.9513 Y9.5793
G01 X51.9603 Y9.5955
G01 X52.0317 Y9.7383
